!!!!SEGMENT: pl-wtm--r-1735_stefani-jozef--pas-de-deux-g-dur.krn
!!!cenid: 18xx:1896
!!!COM: Stefani, Józef
!!!COM-rismID:
!!!CDT: 1800/04/16-1876/03/19
!!!CNT: Polish
!!!OTL: Pas de deux G-dur
!!!PDT:
!!!AGN: Secular
!!!SMS-siglum: PL-Wtm
!!!SMS-shelfmark: R 1735
!!!SMS-shelfwork: W
!!!SMS-variant:
!!!SMS-altvar:
!!!NIFC-rismSourceID: 1001137755
!!!NIFC-islandoraID: pl-wtm:28577
!!!URL-pdf-islandora: https://repozytorium.nifc.pl/islandora/object/pl-wtm%3A28577/datastream/PDF/view
!!!URL-scan: https://polish.musicsources.pl/pl/lokalizacje/galeria/rekopisy/6472 @EN{Scan on Polish Music Herritage in Open Access Website} @PL{Skany w portalu Dziedzictwo Muzyki Polskiej w otwartym dostępie}
!!!ONB-nifc:
!!!AIN: 1 cbass 1 cello 1 clars 2 cor 1 empty 1 fagot 1 flt 1 oboe 1 picco 2 tenor 1 timpa 1 tromp 1 tromt 1 viola 2 violn
!!!key:
**kern	**dynam	**kern	**dynam	**kern	**dynam	**kern	**dynam	**kern	**dynam	**kern	**dynam	**kern	**dynam	**kern	**dynam	**kern	**dynam	**kern	**dynam	**kern	**dynam	**kern	**dynam	**kern	**kern	**dynam	**kern	**dynam	**kern	**dynam	**kern	**dynam	**kern	**dynam
*part18	*part18	*part17	*part17	*part16	*part16	*part15	*part15	*part14	*part14	*part13	*part13	*part12	*part12	*part11	*part11	*part10	*part10	*part9	*part9	*part8	*part8	*part7	*part7	*part6	*part5	*part5	*part4	*part4	*part3	*part3	*part2	*part2	*part1	*part1
*staff18	*	*staff17	*	*staff16	*	*staff15	*	*staff14	*	*staff13	*	*staff12	*	*staff11	*	*staff10	*	*staff9	*	*staff8	*	*staff7	*	*staff6	*staff5	*	*staff4	*	*staff3	*	*staff2	*	*staff1	*
*Icbass	*	*Icello	*	*Iviola	*	*Ivioln	*	*Ivioln	*	*Iempty	*	*Itimpa	*	*Itenor	*	*Itenor	*	*Itromt	*	*Itromp	*	*Ifagot	*	*Icor	*Icor	*	*Iclars	*	*Ioboe	*	*Ipicco	*	*Iflt	*
*I"C: Baſsi	*	*I"Violoncelli	*	*I"Viole	*	*I"Violino	*	*I"Violini	*	*I"Banda	*	*I"Timpani	*	*I"Trombone tenore	*	*I"Trombone tenore	*	*I"Tromboni	*	*I"Trombe	*	*I"Fagotti	*	*I"Corni	*I"Corni	*	*I"Clarinetti in C	*	*I"Oboe	*	*I"Picolo	*	*I"Flauto	*
*I'cb	*	*I'vc	*	*I'vle	*	*I'vl 2	*	*I'vl 1	*	*I'banda	*	*I'timp	*	*I'trb 3,4	*	*I'trb 2	*	*I'trb 1	*	*I'tr	*	*I'fg	*	*I'cor 3,4	*I'cor 1, 2	*	*I'cl	*	*I'ob	*	*I'fl picc	*	*I'fl	*
*clefF4	*	*clefF4	*	*clefC3	*	*clefG2	*	*clefG2	*	*clefF4	*	*clefF4	*	*clefF4	*	*clefC4	*	*clefC3	*	*clefG2	*	*clefF4	*	*clefG2	*clefG2	*	*clefG2	*	*clefG2	*	*clefG2	*	*clefG2	*
*Trd0c0	*	*	*	*	*	*	*	*	*	*	*	*	*	*	*	*	*	*	*	*	*	*	*	*Trd0c0	*Trd0c0	*	*	*	*	*	*Trd0c0	*	*	*
*k[f#]	*	*k[f#]	*	*k[f#]	*	*k[f#]	*	*k[f#]	*	*k[f#]	*	*k[f#]	*	*k[f#]	*	*k[f#]	*	*k[f#]	*	*k[f#]	*	*k[f#]	*	*k[f#]	*k[f#]	*	*k[f#]	*	*k[f#]	*	*k[f#]	*	*k[f#]	*
*G:	*	*G:	*	*G:	*	*G:	*	*G:	*	*G:	*	*G:	*	*G:	*	*G:	*	*G:	*	*G:	*	*G:	*	*G:	*G:	*	*G:	*	*G:	*	*G:	*	*G:	*
*M4/4	*	*M4/4	*	*M4/4	*	*M4/4	*	*M4/4	*	*M4/4	*	*M4/4	*	*M4/4	*	*M4/4	*	*M4/4	*	*M4/4	*	*M4/4	*	*M4/4	*M4/4	*	*M4/4	*	*M4/4	*	*M4/4	*	*M4/4	*
*met(c)	*	*met(c)	*	*met(c)	*	*met(c)	*	*met(c)	*	*met(c)	*	*met(c)	*	*met(c)	*	*met(c)	*	*met(c)	*	*met(c)	*	*met(c)	*	*met(c)	*met(c)	*	*met(c)	*	*met(c)	*	*met(c)	*	*met(c)	*
=	=	=	=	=	=	=	=	=	=	=	=	=	=	=	=	=	=	=	=	=	=	=	=	=	=	=	=	=	=	=	=	=	=	=
!	!	!	!	!	!	!	!	!	!	!	!	!	!	!	!	!	!	!	!	!	!	!	!	!	!	!	!	!	!	!	!	!	!LO:SIC:v:o:t=all\right:global	!
!	!	!	!	!	!	!	!	!	!	!	!	!	!	!	!	!	!	!	!	!	!	!	!	!	!	!	!	!	!	!	!	!	!LO:TX:a:t=var 2.do\nàs de deux No 8.	!
!	!LO:DY:rj	!LO:SIC:v:o:t=t. 1-3 ukryte	!LO:DY:rj	!	!	!	!LO:DY:rj	!	!LO:DY:rj	!	!	!	!	!	!	!	!	!	!	!	!	!	!	!	!	!	!	!	!	!	!	!	!LO:TX:a:t=all.o. mod.to.	!
16D\	f	16D\yy	fyy	16A/ 16D/	.	16d/ 16c/	f	16f#/ 16A/	f	16r	.	16r	.	16r	.	16r	.	16r	.	16r	.	16r	.	16r	16r	.	16r	.	16r	.	16r	.	16r	.
=1	=1	=1	=1	=1	=1	=1	=1	=1	=1	=1	=1	=1	=1	=1	=1	=1	=1	=1	=1	=1	=1	=1	=1	=1	=1	=1	=1	=1	=1	=1	=1	=1	=1	=1
4D\	.	4D\yyyy	.	4A/ 4D/	.	4d/ 4c/	.	4f#/ 4A/	.	1r	.	1r	.	1r	.	1r	.	1r	.	1r	.	1r	.	1r	1r	.	1r	.	1r	.	1r	.	1r	.
8.r	.	8.ryy	.	8.r	.	8.r	.	8.r	.	.	.	.	.	.	.	.	.	.	.	.	.	.	.	.	.	.	.	.	.	.	.	.	.	.
16E\	.	16E\yy	.	16E/	.	16e/ 16B/	.	16g/ 16G/	.	.	.	.	.	.	.	.	.	.	.	.	.	.	.	.	.	.	.	.	.	.	.	.	.	.
4E\	.	4E\yy	.	4E/	.	4e/ 4B/	.	4g/ 4G/	.	.	.	.	.	.	.	.	.	.	.	.	.	.	.	.	.	.	.	.	.	.	.	.	.	.
8.r	.	8.ryy	.	8.r	.	8.r	.	8.r	.	.	.	.	.	.	.	.	.	.	.	.	.	.	.	.	.	.	.	.	.	.	.	.	.	.
16E-X\	.	16E-X\yy	.	16E-X/	.	16c#X/	.	16g/ 16A/	.	.	.	.	.	.	.	.	.	.	.	.	.	.	.	.	.	.	.	.	.	.	.	.	.	.
=2	=2	=2	=2	=2	=2	=2	=2	=2	=2	=2	=2	=2	=2	=2	=2	=2	=2	=2	=2	=2	=2	=2	=2	=2	=2	=2	=2	=2	=2	=2	=2	=2	=2	=2
4E-X\	.	4E-X\yy	.	4E-X/	.	4c#X/	.	4g/ 4A/	.	4r	.	4r	.	4r	.	4r	.	4r	.	1r;	.	4r	.	1r;	2r	.	2r	.	2r	.	2r	.	2r	.
8.r	.	8.ryy	.	8.r	.	8.r	.	8.r	.	8.r	.	8.r	.	8.r	.	8.r	.	8.r	.	.	.	8.r	f	.	.	.	.	.	.	.	.	.	.	.
16E-\	.	16E-\yy	.	16E-/	.	16c#X/	.	16g/ 16A/	.	16r	.	16r	.	16A\ 16E-X\	f	16c#X\	.	16g\	f	.	.	16E-X/ 16EE-X/	.	.	.	.	.	.	.	.	.	.	.	.
8D;\	.	8D;\yy	.	8D;/	.	8d;/	.	8f#/ 8A;/	.	8C;/	.	8D;\	.	8A\ 8D;\	.	8d;\	.	8f#;\	.	.	.	8D/ 8DD;/	.	.	8r;	.	8r;	.	8r;	.	8r;	.	8r;	.
8r	.	8ryy	.	8r	.	8r	.	8r	.	8r	.	8r	.	8r	.	8r	.	8r	.	.	.	8r	.	.	8r	.	16r	.	8r	.	8r	.	16r	.
!	!	!	!	!	!	!	!	!	!	!	!	!	!	!	!	!	!	!	!	!	!	!	!	!	!	!	!	!	!	!	!	!	!LO:TX:t=Solo	!
.	.	.	.	.	.	.	.	.	.	.	.	.	.	.	.	.	.	.	.	.	.	.	.	.	.	.	16d/|	.	.	.	.	.	16dd\|	.
!	!	!	!	!	!	!	!	!	!	!	!	!	!	!	!	!	!	!	!	!	!	!	!	!	!	!	!	!	!	!	!	!	!LO:TX:a:t=p. JStefani	!
4r	.	4ryy	.	4r	.	4r	.	4r	.	4r	.	4r	.	4r	.	4r	.	4r	.	.	.	4r	.	.	4r	.	4dT/	.	4r	.	4r	.	4ddT\	.
.	.	.	.	.	.	.	.	.	.	.	.	.	.	.	.	.	.	.	.	.	.	.	.	.	.	.	(16qqc#X/LL	.	.	.	.	.	(16qqcc#X/LL	.
.	.	.	.	.	.	.	.	.	.	.	.	.	.	.	.	.	.	.	.	.	.	.	.	.	.	.	16qqd/JJ)	.	.	.	.	.	16qqdd/JJ)	.
!!LO:PB:g=original
=3	=3	=3	=3	=3	=3	=3	=3	=3	=3	=3	=3	=3	=3	=3	=3	=3	=3	=3	=3	=3	=3	=3	=3	=3	=3	=3	=3	=3	=3	=3	=3	=3	=3	=3
*	*	*	*	*	*	*	*	*	*	*	*	*	*	*	*	*	*	*	*	*	*	*	*	*	*	*	*^	*	*^	*	*	*	*	*
!	!LO:DY:rj	!	!LO:DY:rj	!	!	!	!	!	!	!	!	!	!	!	!	!	!	!	!	!	!	!	!	!	!	!	!	!	!	!	!	!LO:DY:rj:a	!	!	!	!
4GG/	p	4GG/	p	8r	.	8r	p	2r	.	1r	.	1r	.	1r	.	1r	.	1r	.	1r	.	4r	p	1ryy	4r	p	4b/	4g\	.	4gg/	1r	p	1r	.	4bb\	.
.	.	.	.	8B/	.	8d/	.	.	.	.	.	.	.	.	.	.	.	.	.	.	.	.	.	.	.	.	.	.	.	.	.	.	.	.	.	.
4r	.	4r	.	4G/	.	4g/ 4B/	.	.	.	.	.	.	.	.	.	.	.	.	.	.	.	4B\ 4GG\	.	.	4dd/ 4g/	.	8.r	8.ryy	.	8.r	.	.	.	.	8.r	.
.	.	.	.	.	.	.	.	.	.	.	.	.	.	.	.	.	.	.	.	.	.	.	.	.	.	.	16b/|	16g\	.	16gg/	.	.	.	.	16bb\|	.
4G\	.	4G\	.	8r	.	8r	.	4r	.	.	.	.	.	.	.	.	.	.	.	.	.	4r	.	.	4r	.	4dd/|	4b\	.	4bb/	.	.	.	.	4ddd\|	.
.	.	.	.	8B/	.	8d/	.	.	.	.	.	.	.	.	.	.	.	.	.	.	.	.	.	.	.	.	.	.	.	.	.	.	.	.	.	.
4r	.	8.r	.	4G/	.	4g/ 4B/	.	8.r	.	.	.	.	.	.	.	.	.	.	.	.	.	4B\ 4G\	.	.	4dd/ 4g/	.	8.r	8.r	.	8.r	.	.	.	.	8.r	.
.	.	16d\	.	.	.	.	.	16dd\	.	.	.	.	.	.	.	.	.	.	.	.	.	.	.	.	.	.	16dd/|	16b\	.	16bb/	.	.	.	.	16ddd\|	.
=4	=4	=4	=4	=4	=4	=4	=4	=4	=4	=4	=4	=4	=4	=4	=4	=4	=4	=4	=4	=4	=4	=4	=4	=4	=4	=4	=4	=4	=4	=4	=4	=4	=4	=4	=4	=4
*	*	*	*	*	*	*	*	*	*	*	*	*	*	*	*	*	*	*	*	*^	*	*^	*	*	*^	*	*	*	*	*	*	*	*	*	*	*
*	*	*	*	*	*	*	*	*	*	*	*	*	*	*	*	*	*	*	*	*	*2\right	*	*	*	*	*	*	*	*	*	*2\right	*	*	*	*	*	*	*	*
!	!	!	!	!	!	!	!	!	!	!	!	!	!	!	!	!	!	!	!	!	!	!	!	!	!	!	!	!	!	!	!	!	!	!	!	!	!	!LO:TX:t=P:problem=diminuendo like accent	!
4GG^/	.	(4..c#X^\	.	8r	.	8r	.	(4..cc#X\	.	1r	.	1r	.	1r	.	1r	.	1r	.	(4.cc#X/	2a\	.	4r	4ryy	.	1ryy	4r	4ryy	.	(4..cc#X/	2a#X^\	.	2aa#X/	1r	.	1r	.	4..ccc#X^\	.
.	.	.	.	8A#X/	.	8e^/	.	.	.	.	.	.	.	.	.	.	.	.	.	.	.	.	.	.	.	.	.	.	.	.	.	.	.	.	.	.	.	.	.
!	!	!	!	!	!	!	!	!	!	!	!	!	!	!	!	!	!	!	!	!	!	!	!	!	!	!	!LO:TX:t=P:problem=diminuendo like accent	!	!	!	!	!	!	!	!	!	!	!	!
4r	.	.	.	4A#/	.	4g/ 4G/	.	.	.	.	.	.	.	.	.	.	.	.	.	.	.	.	(4A#X/	4G\	.	.	4ee/	4cc#X^\	.	.	.	.	.	.	.	.	.	.	.
.	.	.	.	.	.	.	.	.	.	.	.	.	.	.	.	.	.	.	.	16dd/LL	.	.	.	.	.	.	.	.	.	.	.	.	.	.	.	.	.	.	.
.	.	32d\LLL	.	.	.	.	.	32dd\LLL	.	.	.	.	.	.	.	.	.	.	.	16ee/JJ)	.	.	.	.	.	.	.	.	.	32dd/LLL	.	.	.	.	.	.	.	32ddd\LLL	.
.	.	32e\JJJ)	.	.	.	.	.	32ee\JJJ)	.	.	.	.	.	.	.	.	.	.	.	.	.	.	.	.	.	.	.	.	.	32ee/JJJ	.	.	.	.	.	.	.	32eee\JJJ	.
!	!	!	!	!LO:SIC:v:o:t=zamazane nuty?	!	!	!	!	!	!	!	!	!	!	!	!	!	!	!	!	!	!	!	!	!	!	!	!	!	!	!	!	!	!	!	!	!	!	!
4G\	.	4d\	.	8r	.	8r	.	4dd\	.	.	.	.	.	.	.	.	.	.	.	4dd/	4b\	.	4B/)	4G\	.	.	4dd/	4dd\	.	4dd/)	4b\	.	4bb/	.	.	.	.	4ddd\	.
.	.	.	.	8B/	.	8d/	.	.	.	.	.	.	.	.	.	.	.	.	.	.	.	.	.	.	.	.	.	.	.	.	.	.	.	.	.	.	.	.	.
4r	.	4r	.	4G/	.	4g/ 4B/	.	4r	.	.	.	.	.	.	.	.	.	.	.	4r	4ryy	.	4r	4ryy	.	.	4r	4ryy	.	8.r	8.ryy	.	8.r	.	.	.	.	8.r	.
.	.	.	.	.	.	.	.	.	.	.	.	.	.	.	.	.	.	.	.	.	.	.	.	.	.	.	.	.	.	16b/	16g\	.	16gg/	.	.	.	.	16bb\|	.
*	*	*	*	*	*	*	*	*	*	*	*	*	*	*	*	*	*	*	*	*v	*v	*	*	*	*	*	*	*	*	*	*	*	*	*	*	*	*	*	*
*	*	*	*	*	*	*	*	*	*	*	*	*	*	*	*	*	*	*	*	*	*	*v	*v	*	*	*	*	*	*	*	*	*	*	*	*	*	*	*
=5	=5	=5	=5	=5	=5	=5	=5	=5	=5	=5	=5	=5	=5	=5	=5	=5	=5	=5	=5	=5	=5	=5	=5	=5	=5	=5	=5	=5	=5	=5	=5	=5	=5	=5	=5	=5	=5
!	!	!LO:SIC:v:o:t=t. 6-7 ukryte	!	!	!	!	!	!	!	!	!	!	!	!	!	!	!	!	!	!	!	!	!	!	!	!	!	!	!	!	!	!	!	!	!	!	!
4D\	.	4D\yy	.	8r	.	8r	.	1r	.	1r	.	1r	.	1r	.	1r	.	1r	.	1r	.	4r	.	1ryy	4r	4ryy	.	4a/	4f#\	.	4ff#/	1r	.	1r	.	4aa\|	.
.	.	.	.	8d\	.	8d/	.	.	.	.	.	.	.	.	.	.	.	.	.	.	.	.	.	.	.	.	.	.	.	.	.	.	.	.	.	.	.
4r	.	4ryy	.	4d\ 4A\	.	4f#/ 4c/	.	.	.	.	.	.	.	.	.	.	.	.	.	.	.	4A\ 4D\	.	.	4dd/	4cc\	.	8.r	4r	.	4r	.	.	.	.	8.r	.
.	.	.	.	.	.	.	.	.	.	.	.	.	.	.	.	.	.	.	.	.	.	.	.	.	.	.	.	16d/	.	.	.	.	.	.	.	16dd\|	.
4D\	.	4D\yy	.	8r	.	8r	.	.	.	.	.	.	.	.	.	.	.	.	.	.	.	4r	.	.	4r	4ryy	.	8dd/L	2r	.	2r	.	.	.	.	8ddd\L|	.
.	.	.	.	8d\	.	8d/	.	.	.	.	.	.	.	.	.	.	.	.	.	.	.	.	.	.	.	.	.	16r	.	.	.	.	.	.	.	16r	.
.	.	.	.	.	.	.	.	.	.	.	.	.	.	.	.	.	.	.	.	.	.	.	.	.	.	.	.	16d/Jk	.	.	.	.	.	.	.	16dd\Jk|	.
4r	.	4ryy	.	4d\ 4A\	.	4f#/ 4c/	.	.	.	.	.	.	.	.	.	.	.	.	.	.	.	4A\ 4D\	.	.	4dd/	4cc\	.	8.dd/L	.	.	.	.	.	.	.	8.ddd\L|	.
.	.	.	.	.	.	.	.	.	.	.	.	.	.	.	.	.	.	.	.	.	.	.	.	.	.	.	.	16cc/Jk	.	.	.	.	.	.	.	16ccc\Jk	.
*	*	*	*	*	*	*	*	*	*	*	*	*	*	*	*	*	*	*	*	*	*	*	*	*	*v	*v	*	*	*	*	*v	*v	*	*	*	*	*
=6	=6	=6	=6	=6	=6	=6	=6	=6	=6	=6	=6	=6	=6	=6	=6	=6	=6	=6	=6	=6	=6	=6	=6	=6	=6	=6	=6	=6	=6	=6	=6	=6	=6	=6	=6
8GG/	.	8GG/yy	.	8r	.	8r	.	4r	.	2r	.	2r	.	2r	.	2r	.	2r	.	4r	.	4r	.	1ryy	4r	.	4b/	4r	.	4r	.	4r	<	4bb\	<
8r	.	8ryy	.	8B/	.	8d/	.	.	.	.	.	.	.	.	.	.	.	.	.	.	.	.	.	.	.	.	.	.	.	.	.	.	.	.	.
4G\	.	4G\yy	.	4G/	.	4g/ 4B/	.	(16g\LL	.	.	.	.	.	.	.	.	.	.	.	4b/ 4g/	.	4B\ 4G\	.	.	4dd\ 4g\	.	(16g/LL	16g\LL	.	(16g\LL	.	(16g\LL	.	(16gg\LL	.
.	.	.	.	.	.	.	.	16b\	.	.	.	.	.	.	.	.	.	.	.	.	.	.	.	.	.	.	16b/	16b\	.	16b\	.	16b\	.	16bb\	.
.	.	.	.	.	.	.	.	16dd\	.	.	.	.	.	.	.	.	.	.	.	.	.	.	.	.	.	.	16dd/	16dd\	.	16dd\	.	16dd\	.	16ddd\	.
!	!	!	!	!	!	!	!	!	!	!	!	!	!	!	!	!	!	!	!	!	!	!	!	!	!	!	!	!	!	!	!LO:DY:a	!	!	!	!
.	.	.	.	.	.	.	.	16gg\JJ)	.	.	.	.	.	.	.	.	.	.	.	.	.	.	.	.	.	sf	16gg/JJ	16gg\JJ	f	16gg\JJ	f	16gg\JJ	[ f	16ggg\JJ	[ f
!	!	!	!	!	!	!	!	!	!	!	!LO:DY:a	!	!LO:DY:a	!	!LO:DY:a	!	!LO:DY:a	!	!	!	!	!	!	!	!	!	!	!	!	!	!	!	!	!	!
.	f	.	fyy	.	.	.	.	.	.	.	sf	.	sf	.	.	.	.	.	.	.	.	.	.	.	.	.	.	.	.	.	.	.	.	.	.
8D\	.	8D\yy	.	8f#\ 8A\ 8D\	f	8dd/ 8f#/ 8A/	.	8ff#\ 8a\ 8d\	f	8C/	.	8D\	.	8D\	sf	8A\	sf	8f#\	.	8a/ 8f#/	sf	8A\ 8D\	sf	.	8dd\	.	8.ff#/L)	8.ff#\L	.	8.ff#\L)	.	8.ff#\L)	.	8.fff#\L)	.
8r	.	8ryy	.	8r	.	8r	.	8r	.	8r	.	8r	.	8r	.	8r	.	8r	.	8r	.	8r	.	.	8r	.	.	.	.	.	.	.	.	.	.
.	.	.	.	.	.	.	.	.	.	.	.	.	.	.	.	.	.	.	.	.	.	.	.	.	.	.	16ee'/Jk	16ee\Jk	.	16ee'\Jk	.	16ee'\Jk	.	16eee\Jk|	.
4r	.	4ryy	.	4r	.	4r	.	4r	.	4r	.	4r	.	4r	.	4r	.	4r	.	4r	.	4r	.	.	4r	.	16dd'/LL	16dd\LL	.	16dd'\LL	.	16dd'\LL	.	16ddd\LL|	.
.	.	.	.	.	.	.	.	.	.	.	.	.	.	.	.	.	.	.	.	.	.	.	.	.	.	.	16cc'/	16cc\	.	16cc'\	.	16cc'\	.	16ccc\|	.
.	.	.	.	.	.	.	.	.	.	.	.	.	.	.	.	.	.	.	.	.	.	.	.	.	.	.	16b'/	16b\	.	16b'\	.	16b'\	.	16bb\|	.
.	.	.	.	.	.	.	.	.	.	.	.	.	.	.	.	.	.	.	.	.	.	.	.	.	.	.	16a'/JJ	16a\JJ	.	16a'\JJ	.	16a'\JJ	.	16aa\JJ|	.
*	*	*	*	*	*	*	*	*	*	*	*	*	*	*	*	*	*	*	*	*	*	*	*	*	*	*	*v	*v	*	*	*	*	*	*	*
!!LO:PB:g=original
=7	=7	=7	=7	=7	=7	=7	=7	=7	=7	=7	=7	=7	=7	=7	=7	=7	=7	=7	=7	=7	=7	=7	=7	=7	=7	=7	=7	=7	=7	=7	=7	=7	=7	=7
*	*	*	*	*	*	*	*	*	*	*	*	*	*	*	*	*	*	*	*	*	*	*	*	*	*	*	*	*	*^	*	*	*	*	*
4GG/	.	4GG/	.	8r	.	8r	.	2r	.	1r	.	1r	.	1r	.	1r	.	1r	.	1r	.	4r	p	1ryy	4r	p	4b/ 4g/	.	4gg/	1r	.	1r	.	4bb\	.
.	.	.	.	8B/	.	8d/	.	.	.	.	.	.	.	.	.	.	.	.	.	.	.	.	.	.	.	.	.	.	.	.	.	.	.	.	.
4r	.	4r	.	4d\ 4G\	.	4g/ 4B/	.	.	.	.	.	.	.	.	.	.	.	.	.	.	.	4B\ 4GG\	.	.	4dd/ 4g/	.	8.r	.	8.r	.	.	.	.	8.r	.
.	.	.	.	.	.	.	.	.	.	.	.	.	.	.	.	.	.	.	.	.	.	.	.	.	.	.	16b/ 16g/	.	16gg/	.	.	.	.	16bb\|	.
4G\	.	4G\	.	8r	.	8r	.	4r	.	.	.	.	.	.	.	.	.	.	.	.	.	4r	.	.	4r	.	4dd/ 4b/	.	4bb/	.	.	.	.	4ddd\|	.
.	.	.	.	8B/	.	8d/	.	.	.	.	.	.	.	.	.	.	.	.	.	.	.	.	.	.	.	.	.	.	.	.	.	.	.	.	.
4r	.	8.r	.	4d\ 4G\	.	4g/ 4B/	.	8.r	.	.	.	.	.	.	.	.	.	.	.	.	.	4B\ 4G\	.	.	4dd/ 4g/	.	8.r	.	8.r	.	.	.	.	8.r	.
.	.	16d\	.	.	.	.	.	16dd\	.	.	.	.	.	.	.	.	.	.	.	.	.	.	.	.	.	.	16dd/ 16b/	.	16bb/	.	.	.	.	16ddd\|	.
=8	=8	=8	=8	=8	=8	=8	=8	=8	=8	=8	=8	=8	=8	=8	=8	=8	=8	=8	=8	=8	=8	=8	=8	=8	=8	=8	=8	=8	=8	=8	=8	=8	=8	=8	=8
*	*	*	*	*	*	*	*	*	*	*	*	*	*	*	*	*	*	*	*	*^	*	*^	*	*	*^	*	*^	*	*	*	*	*	*	*	*
!LO:TX:t=P:problem=diminuendo like accent	!	!	!	!	!	!	!	!LO:TX:t=P:problem=diminuendo like accent	!	!	!	!	!	!	!	!	!	!	!	!LO:TX:t=P:problem=diminuendo like accent	!	!	!	!	!	!	!	!	!	!	!	!	!	!	!	!	!	!LO:TX:t=P:problem=diminuendo like accent	!
2GG^/	.	(4..c#X\	.	4r	.	4r	.	(4..cc#X^<\	.	1r	.	1r	.	1r	.	1r	.	1r	.	(4..cc#X/	2a#X\	.	4r	4ryy	.	1ryy	4r	4ryy	.	4..cc#X/	2a#X\	.	2aa#X/	1r	.	1r	.	(4..ccc#X^<\	.
!	!	!	!	!	!	!	!	!	!	!	!	!	!	!	!	!	!	!	!	!	!	!	!LO:TX:t=P:problem=diminuendo like accent	!	!	!	!LO:TX:t=P:problem=diminuendo like accent	!	!	!	!	!	!	!	!	!	!	!	!
.	.	.	.	4e\ 4c#X\	.	4g/ 4A#X/	.	.	.	.	.	.	.	.	.	.	.	.	.	.	.	>]	(>4A#X/	[>4G^\	.	.	(4ee/	4cc#X^\	.	.	.	.	.	.	.	.	.	.	.
.	.	32d\LLL	.	.	.	.	.	32dd\LLL	.	.	.	.	.	.	.	.	.	.	.	32dd/LLL	.	.	.	.	.	.	.	.	.	32dd/LLL	.	.	.	.	.	.	.	32ddd\LLL	.
.	.	32e\JJJ)	.	.	.	.	.	32ee\JJJ)	.	.	.	.	.	.	.	.	.	.	.	32ee/JJJ)	.	.	.	.	.	.	.	.	.	32ee/JJJ	.	.	.	.	.	.	.	32eee\JJJ	.
4G\	.	4d\	.	4d\	.	4g/ 4B/	.	4dd\	.	.	.	.	.	.	.	.	.	.	.	4dd/	4b\	.	4B/)	4G\]	.	.	4dd/)	4dd\	.	4dd/	4b\	.	4bb/	.	.	.	.	4ddd\)	.
4r	.	4r	.	4r	.	4r	.	8.r	.	.	.	.	.	.	.	.	.	.	.	4r	4ryy	.	4r	4ryy	.	.	4r	4ryy	.	8.r	8.ryy	.	8.r	.	.	.	.	8.r	.
.	.	.	.	.	.	.	.	16b/|	.	.	.	.	.	.	.	.	.	.	.	.	.	.	.	.	.	.	.	.	.	16b/	16g\	.	16gg/	.	.	.	.	16bb\	.
*	*	*	*	*	*	*	*	*	*	*	*	*	*	*	*	*	*	*	*	*v	*v	*	*	*	*	*	*	*	*	*	*	*	*	*	*	*	*	*	*
*	*	*	*	*	*	*	*	*	*	*	*	*	*	*	*	*	*	*	*	*	*	*v	*v	*	*	*	*	*	*	*	*	*	*	*	*	*	*	*
=9	=9	=9	=9	=9	=9	=9	=9	=9	=9	=9	=9	=9	=9	=9	=9	=9	=9	=9	=9	=9	=9	=9	=9	=9	=9	=9	=9	=9	=9	=9	=9	=9	=9	=9	=9	=9	=9
!	!	!LO:SIC:v:o:t=t. 10-11 ukryte	!	!	!	!	!	!	!	!	!	!	!	!	!	!	!	!	!	!	!	!	!	!	!	!	!	!	!	!	!	!	!	!	!	!	!
8A\	.	8A\yy	.	8d\	.	8f#/ 8A/	.	8a/L|	.	2r	.	2r	.	2r	.	2r	.	2r	.	2r	.	8A\	.	1ryy	8dd/	8dd\	.	8a/L	8f#\	.	8ff#/	2r	.	2r	.	8aa'\L	.
8r	.	8ryy	.	8r	.	8r	.	(16g#X/L	.	.	.	.	.	.	.	.	.	.	.	.	.	8r	.	.	8r	8ryy	.	(16g#X/L	8r	.	8r	.	.	.	.	(16gg#X\L	.
.	.	.	.	.	.	.	.	16b/JJ)	.	.	.	.	.	.	.	.	.	.	.	.	.	.	.	.	.	.	.	16b/JJ)	.	.	.	.	.	.	.	16bb\JJ)	.
*	*	*	*	*rep	*	*rep	*	*	*	*	*	*	*	*	*	*	*	*	*	*	*	*	*	*	*	*	*	*	*	*	*	*	*	*	*	*	*
8A\	.	8A\yy	.	8d\	.	8f#/ 8A/	.	8a'\L	.	.	.	.	.	.	.	.	.	.	.	.	.	8A\	.	.	8dd/	8dd\	.	8a/L	8f#\	.	4r	.	.	.	.	8aa'\L	.
8r	.	8ryy	.	8r	.	8r	.	(16ff#\L	.	.	.	.	.	.	.	.	.	.	.	.	.	8r	.	.	8r	8ryy	.	(16ff#/L	8r	.	.	.	.	.	.	(16fff#\L	.
.	.	.	.	.	.	.	.	16dd\JJ)	.	.	.	.	.	.	.	.	.	.	.	.	.	.	.	.	.	.	.	16dd/JJ)	.	.	.	.	.	.	.	16ddd\JJ)	.
*	*	*	*	*Xrep	*	*Xrep	*	*	*	*	*	*	*	*	*	*	*	*	*	*	*	*	*	*	*	*	*	*	*	*	*	*	*	*	*	*	*
*	*	*	*	*rep	*	*rep	*	*	*	*	*	*	*	*	*	*	*	*	*	*	*	*	*	*	*	*	*	*	*	*	*	*	*	*	*	*	*
8A\	.	8A\yy	.	8d\	.	8f#/ 8A/	.	8a'\L	.	4r	.	4r	.	4r	.	4r	.	4r	.	4r	.	8A\	.	.	8dd/	8dd\	.	8a/	8f#\	.	8a'/L	4r	.	8a'\L	.	8aa\	.
8r	.	8ryy	.	8r	.	8r	.	(16dd\L	.	.	.	.	.	.	.	.	.	.	.	.	.	8r	.	.	8r	8ryy	.	8r	8r	.	(16dd/L	.	.	(16dd\L	.	8r	.
.	.	.	.	.	.	.	.	16ff#\JJ)	.	.	.	.	.	.	.	.	.	.	.	.	.	.	.	.	.	.	.	.	.	.	16ff#/JJ)	.	.	16ff#\JJ)	.	.	.
*	*	*	*	*Xrep	*	*Xrep	*	*	*	*	*	*	*	*	*	*	*	*	*	*	*	*	*	*	*	*	*	*	*	*	*	*	*	*	*	*	*
!	!	!	!	!	!	!	!	!	!	!	!	!	!	!	!	!	!	!	!	!	!	!	!	!	!	!	!	!	!	!	!LO:TX:t=P:problem=diminuendo like accent	!	!	!	!	!	!
4AA^/	.	4AA^/yy	.	4e\ 4c#X\	.	4g/ 4A/	.	(16bb\LL	.	4C/	.	4AA/ 4GG/	.	4E\ 4AA\	.	4G/	.	4c#X^<\	.	4a/ 4e/	.	4A/ 4AA/	sf	.	4ee/	4cc#X\	sf	4r	4g#\	.	(16bb/LL	(4cc#X^\	.	(16bb\LL	.	4r	.
.	.	.	.	.	.	.	>]	16aa\)	.	.	.	.	.	.	.	.	.	.	.	.	.	.	.	.	.	.	.	.	.	.	16aa/)	.	.	16aa\)	.	.	.
.	.	.	.	.	.	.	.	16gg\	.	.	.	.	.	.	.	.	.	.	.	.	.	.	.	.	.	.	.	.	.	.	16gg'/	.	.	16gg'\	.	.	.
.	.	.	.	.	.	.	.	16ee'\JJ	f	.	.	.	.	.	.	.	.	.	.	.	.	.	.	.	.	.	.	.	.	.	16ee'/JJ	.	.	16ee'\JJ	.	.	.
*	*	*	*	*	*	*	*	*	*	*	*	*	*	*	*	*	*	*	*	*	*	*	*	*	*v	*v	*	*	*	*	*	*	*	*	*	*	*
=10	=10	=10	=10	=10	=10	=10	=10	=10	=10	=10	=10	=10	=10	=10	=10	=10	=10	=10	=10	=10	=10	=10	=10	=10	=10	=10	=10	=10	=10	=10	=10	=10	=10	=10	=10	=10
!	!LO:DY:rj	!	!LO:DY:rj	!	!	!	!	!	!	!	!	!	!	!	!	!	!	!	!	!	!	!	!	!	!	!	!	!	!	!	!	!	!	!	!	!
(16D\LL	f	(16D\LLyy	f	(16d\LL	.	16f#/LL 16A/	f	(16dd\LL	.	8C/	.	8D/	.	8F#\ 8D\	.	8F#/	.	8d\	.	8a/ 8d/	.	(16D\LL	.	2.ryy	8dd\	.	2r	8f#\	.	4dd/	16dd\LL)	.	(16dd\LL	.	2r	.
16d\)	.	16d\)yy	.	16dd\)	.	16dd/	.	16ddd\)	.	.	.	.	.	.	.	.	.	.	.	.	.	16d\)	.	.	.	.	.	.	.	.	16ddd\	.	16ddd\)	.	.	.
16c#X'\	.	16c#X'\yy	.	16cc#X'\	.	16cc#X/	.	16ccc#X'\	.	8r	.	8r	.	8r	.	8r	.	8r	.	8r	.	16c#X'\	.	.	8r	.	.	8r	.	.	16ccc#X\	.	16ccc#X'\	.	.	.
16B'\JJ	.	16B'\JJyy	.	16b'\JJ	.	16b/JJ	.	16bb'\JJ	.	.	.	.	.	.	.	.	.	.	.	.	.	16B'\JJ	.	.	.	.	.	.	.	.	16bb\JJ	.	16bb'\JJ	.	.	.
16A'\LL	.	16A'\LLyy	.	16a'\LL	.	16a/LL	.	16aa'\LL	.	4r	.	4r	.	4r	.	4r	.	4r	.	4r	.	16A'\LL	.	.	4r	.	.	4r	.	4reyy	16aa'\LL	.	16aa'\LL	.	.	.
16G'\	.	16G'\yy	.	16g'\	.	16g/	.	16gg'\	.	.	.	.	.	.	.	.	.	.	.	.	.	16G'\	.	.	.	.	.	.	.	.	16gg'\	.	16gg'\	.	.	.
16F#'\	.	16F#'\yy	.	16f#'\	.	16f#/	.	16ff#'\	.	.	.	.	.	.	.	.	.	.	.	.	.	16F#'\	.	.	.	.	.	.	.	.	16ff#'\	.	16ff#'\	.	.	.
16E'\JJ	.	16E'\JJyy	.	16e'\JJ	.	16e/JJ	.	16ee'\JJ	.	.	.	.	.	.	.	.	.	.	.	.	.	16E'\JJ	.	.	.	.	.	.	.	.	16ee'\JJ	.	16ee'\JJ	.	.	.
8D\	.	8D\yy	.	8d\	.	8d'/	.	8dd'\	.	4r	.	4r	.	4r	.	4r	.	4r	.	4r	.	8D'\	.	.	4r	.	4r	4r	.	4reyy	8dd\	.	8dd\	.	4r	.
8ryy	.	8ryyyy	.	8ryy	.	8ryy	.	8r	.	.	.	.	.	.	.	.	.	.	.	.	.	8r	.	.	.	.	.	.	.	.	8r	.	8r	.	.	.
*	*	*	*	*	*	*	*	*	*	*	*	*	*	*	*	*	*	*	*	*	*	*	*	*	*	*	*v	*v	*	*	*	*	*	*	*	*
*	*	*	*	*	*	*	*	*	*	*	*	*	*	*	*	*	*	*	*	*	*	*	*	*	*	*	*	*	*v	*v	*	*	*	*	*
!!LO:PB:g=original
=||	=||	=||	=||	=||	=||	=||	=||	=||	=||	=||	=||	=||	=||	=||	=||	=||	=||	=||	=||	=||	=||	=||	=||	=||	=||	=||	=||	=||	=||	=||	=||	=||	=||	=||
4r	.	4r	.	4r	.	4r	.	4r	.	4r	.	4r	.	4r	.	4r	.	4r	.	4r	.	4r	.	4ryy	4r	.	4dT/	.	4r	.	4r	.	4ddT\	.
.	.	.	.	.	.	.	.	.	.	.	.	.	.	.	.	.	.	.	.	.	.	.	.	.	.	.	(16qqc#X/LL	.	.	.	.	.	(16qqcc#X/LL	.
.	.	.	.	.	.	.	.	.	.	.	.	.	.	.	.	.	.	.	.	.	.	.	.	.	.	.	16qqd/JJ)	.	.	.	.	.	16qqdd/JJ)	.
=11	=11	=11	=11	=11	=11	=11	=11	=11	=11	=11	=11	=11	=11	=11	=11	=11	=11	=11	=11	=11	=11	=11	=11	=11	=11	=11	=11	=11	=11	=11	=11	=11	=11	=11
*	*	*	*	*	*	*	*	*	*	*	*	*	*	*	*	*	*	*	*	*^	*	*	*	*	*^	*	*^	*	*^	*	*	*	*	*
!	!LO:DY:rj	!LO:SIC:v:o:t=t.13-14 ukryte	!LO:DY:rj	!	!	!	!	!	!	!	!	!	!	!	!	!	!	!	!	!	!	!	!	!	!	!	!	!	!	!	!	!	!	!	!	!	!	!
4D\	p	4D\yy	pyy	4r	.	4r	p	2r	.	1ryy	.	1ryy	.	1ryy	.	1ryy	.	1ryy	.	8.r	8.ryy	.	2r	.	1ryy	4r	4ryy	p	8cc/L 8a/	4ryy	.	8aa/L	1r	.	1r	.	8ccc'\L	.
.	.	.	.	.	.	.	.	.	.	.	.	.	.	.	.	.	.	.	.	.	.	.	.	.	.	.	.	.	16r	.	.	16r	.	.	.	.	16r	.
.	.	.	.	.	.	.	.	.	.	.	.	.	.	.	.	.	.	.	.	(16cc/	16a\	.	.	.	.	.	.	.	16cc/Jk 16a/	.	.	16aa/Jk|	.	.	.	.	16ccc\Jk|	.
4r	.	4ryy	.	4d\ 4A\	.	4f#/ 4c/	.	.	.	.	.	.	.	.	.	.	.	.	.	4ee\ 4cc\)	4ryy	.	.	.	.	4dd/	4cc\	.	4ee/	4cc\|	.	4ccc/|	.	.	.	.	4eee\|	.
!	!	!	!	!	!	!	!	!LO:TX:a:t=divisi	!	!	!	!	!	!	!	!	!	!	!	!	!	!	!	!	!	!	!	!	!	!	!	!	!	!	!	!	!	!
4D\	.	4D\yy	.	4r	.	4r	.	8.r	p	.	.	.	.	.	.	.	.	.	.	2r	2ryy	.	8.r	.	.	4r	4ryy	.	8.r	2ryy	.	8.rg	.	.	.	.	8.r	.
.	.	.	.	.	.	.	.	16aa\ 16ff#\	.	.	.	.	.	.	.	.	.	.	.	.	.	.	16A\ 16F#\	.	.	.	.	.	16a/ 16f#/	.	.	16ff#/	.	.	.	.	16aa\	.
4r	.	4ryy	.	4d\ 4A\	.	4f#/ 4c/	.	4aa\ 4ff#t\	.	.	.	.	.	.	.	.	.	.	.	.	.	.	4A\ 4F#t\	.	.	4dd/	4cc\	.	4a/ 4f#t/	.	.	4ff#t/	.	.	.	.	4aaT\	.
*	*	*	*	*	*	*	*	*	*	*	*	*	*	*	*	*	*	*	*	*	*	*	*	*	*	*v	*v	*	*	*	*	*	*	*	*	*	*	*
*	*	*	*	*	*	*	*	*	*	*	*	*	*	*	*	*	*	*	*	*	*	*	*	*	*	*	*	*v	*v	*	*	*	*	*	*	*	*
.	.	.	.	.	.	.	.	(16qqgg#\LL 16qqee#X/	.	.	.	.	.	.	.	.	.	.	.	.	.	.	(16qqG#X\LL 16qqE#X/	.	.	.	.	(16qqg#X/LL 16qqe#X/	.	(>16qqee#X/LL	.	.	.	.	(16qqgg#X/LL	.
.	.	.	.	.	.	.	.	16qqaa\JJ 16qqff#/)	.	.	.	.	.	.	.	.	.	.	.	.	.	.	16qqA\JJ 16qqF#/)	.	.	.	.	16qqa/JJ 16qqf#/)	.	16qqff#/JJ	.	.	.	.	16qqaa/JJ)	.
=12	=12	=12	=12	=12	=12	=12	=12	=12	=12	=12	=12	=12	=12	=12	=12	=12	=12	=12	=12	=12	=12	=12	=12	=12	=12	=12	=12	=12	=12	=12	=12	=12	=12	=12	=12	=12
4GG/	.	4GG/yy	.	4r	.	4r	.	4bb\ 4gg\	.	1ryy	.	1ryy	.	1ryy	.	1ryy	.	1ryy	.	8.r	8.ryy	.	4B\ 4G\	.	1ryy	4r	.	8b/L 8g/	.	8gg/L)	1r	.	1r	.	8bb\L|	.
.	.	.	.	.	.	.	.	.	.	.	.	.	.	.	.	.	.	.	.	.	.	.	.	.	.	.	.	16r	.	16r	.	.	.	.	16r	.
.	.	.	.	.	.	.	.	.	.	.	.	.	.	.	.	.	.	.	.	(16b/	16g\	.	.	.	.	.	.	16b/Jk 16g/	.	16gg/Jk	.	.	.	.	16bb\Jk|	.
4r	.	4ryy	.	4d\ 4G\	.	4g/ 4B/	.	4ryy	.	.	.	.	.	.	.	.	.	.	.	4dd/)	4b\	.	4r	.	.	4dd/ 4g/	.	4dd/ 4b/	.	4bb/	.	.	.	.	4ddd\|	.
4G\	.	4G\yy	.	4r	.	4r	.	8.r	.	.	.	.	.	.	.	.	.	.	.	2r	2ryy	.	8.r	.	.	4r	.	8.r	.	8.r	.	.	.	.	8.r	.
.	.	.	.	.	.	.	.	16gg\ 16b\	.	.	.	.	.	.	.	.	.	.	.	.	.	.	16B\ 16G\|	.	.	.	.	16g/ 16B/	.	16b/	.	.	.	.	16gg\	.
4r	.	4ryy	.	4d\ 4G\	.	4g/ 4B/	.	4gg\ 4bt\	.	.	.	.	.	.	.	.	.	.	.	.	.	.	(4B\ 4GT\	.	.	4dd/ 4g/	.	4g/ 4Bt/	.	4bt/	.	.	.	.	4ggT\	.
*	*	*	*	*	*	*	*	*	*	*	*	*	*	*	*	*	*	*	*	*v	*v	*	*	*	*	*	*	*	*	*v	*v	*	*	*	*	*
.	.	.	.	.	.	.	.	(16qqff#\LL 16qqa#X/	.	.	.	.	.	.	.	.	.	.	.	.	.	16qqA#X\LL 16qqF#/	.	.	.	.	16qqf#/LL 16qqA#X/	.	(16qqa#X/LL	.	.	.	(16qqff#/LL	.
.	.	.	.	.	.	.	.	16qqgg\JJ 16qqb/)	.	.	.	.	.	.	.	.	.	.	.	.	.	16qqB\JJ 16qqG/)	.	.	.	.	16qqg/JJ 16qqB/	.	16qqb/JJ)	.	.	.	16qqgg/JJ)	.
!!LO:PB:g=original
=13	=13	=13	=13	=13	=13	=13	=13	=13	=13	=13	=13	=13	=13	=13	=13	=13	=13	=13	=13	=13	=13	=13	=13	=13	=13	=13	=13	=13	=13	=13	=13	=13	=13	=13
!	!	!LO:SIC:v:o:t=t.15-17 ukryte	!	!	!	!	!	!	!	!	!	!	!	!	!	!	!	!	!	!	!	!	!	!	!	!	!	!	!	!	!	!	!	!
8C/	.	8C/yy	.	8r	.	8r	.	1r	.	1r	.	1r	.	1r	.	1r	.	1r	.	1ryy	.	1A\ 1C\	.	1ryy	1ee\ 1cc\	<[	16e/LL|	.	1r	.	16ee'\LL	.	16ee'\LL	.
.	.	.	.	.	.	.	.	.	.	.	.	.	.	.	.	.	.	.	.	.	.	.	<	.	.	.	(>16g#X/	.	.	.	(16gg#X\	.	(16gg#X\	.
8r	<	8ryy	<	8e\ 8c\	.	8a/ 8c/	<	.	.	.	.	.	.	.	.	.	.	.	.	.	.	.	.	.	.	.	16a/	.	.	.	16aa\	.	16aa\	.
.	.	.	.	.	.	.	.	.	.	.	.	.	.	.	.	.	.	.	.	.	.	.	.	.	.	.	16g#/JJ)	.	.	.	16gg#\JJ)	.	16gg#\JJ)	.
!	!	!	!	!	!	!	!	!	!	!	!	!	!	!	!	!	!	!	!	!	!	!	!	!	!	!	!	!	!	!	!LO:TX:a:t=col Fl	!	!	!
!	!	!	!	!	!	!	!	!	!	!	!	!	!	!	!	!	!	!	!	!	!	!	!	!	!	!	!	!	!	!	!LO:SIC:v:o:t=część t. 15 i 16 ukryte	!	!	!
*rep	*	*rep	*	*rep	*	*rep	*	*	*	*	*	*	*	*	*	*	*	*	*	*	*	*	*	*	*	*	*	*	*	*	*	*	*	*
8C/	.	8C/yy	.	8r	.	8r	.	.	.	.	.	.	.	.	.	.	.	.	.	.	.	.	.	.	.	.	16a/LL|	.	.	.	16aa\LLyy|	<	16aa\LL|	<
.	.	.	.	.	.	.	.	.	.	.	.	.	.	.	.	.	.	.	.	.	.	.	.	.	.	.	(>16b/	.	.	.	(16bb\yy	.	(16bb\	.
8r	.	8ryy	.	8e\ 8c\	.	8a/ 8c/	.	.	.	.	.	.	.	.	.	.	.	.	.	.	.	.	.	.	.	.	16cc/	.	.	.	16ccc\yy	.	16ccc\	.
.	.	.	.	.	.	.	.	.	.	.	.	.	.	.	.	.	.	.	.	.	.	.	.	.	.	.	16b/JJ)	.	.	.	16bb\JJ)yy	.	16bb\JJ)	.
*Xrep	*	*Xrep	*	*Xrep	*	*Xrep	*	*	*	*	*	*	*	*	*	*	*	*	*	*	*	*	*	*	*	*	*	*	*	*	*	*	*	*
*rep	*	*rep	*	*rep	*	*rep	*	*	*	*	*	*	*	*	*	*	*	*	*	*	*	*	*	*	*	*	*	*	*	*	*	*	*	*
8C/	.	8C/yy	.	8r	.	8r	.	.	.	.	.	.	.	.	.	.	.	.	.	.	.	.	.	.	.	.	16cc/LL|	.	.	.	16ccc\LLyy|	.	16ccc\LL|	.
.	.	.	.	.	.	.	.	.	.	.	.	.	.	.	.	.	.	.	.	.	.	.	.	.	.	.	(>16dd/	.	.	.	(16ddd\yy	.	(16ddd\	.
8r	.	8ryy	.	8e\ 8c\	.	8a/ 8c/	.	.	.	.	.	.	.	.	.	.	.	.	.	.	.	.	.	.	.	.	16ee/	.	.	.	16eee\yy	.	16eee\	.
.	.	.	.	.	.	.	.	.	.	.	.	.	.	.	.	.	.	.	.	.	.	.	.	.	.	.	16dd#X/JJ)	.	.	.	16ddd#X\JJ)yy	.	16ddd#X\JJ)	.
*Xrep	*	*Xrep	*	*Xrep	*	*Xrep	*	*	*	*	*	*	*	*	*	*	*	*	*	*	*	*	*	*	*	*	*	*	*	*	*	*	*	*
*rep	*	*rep	*	*rep	*	*rep	*	*	*	*	*	*	*	*	*	*	*	*	*	*	*	*	*	*	*	*	*	*	*	*	*	*	*	*
8C/	.	8C/yy	.	8r	.	8r	.	.	.	.	.	.	.	.	.	.	.	.	.	.	.	.	.	.	.	.	(>16ff#/LL	.	.	.	(16fff#\LLyy	[	(16fff#\LL	[
.	.	.	.	.	.	.	.	.	.	.	.	.	.	.	.	.	.	.	.	.	.	.	.	.	.	.	16ee/	.	.	.	16eee\)yy	.	16eee\)	.
8r	[[	8ryy	[[	8e\ 8c\	.	8a/ 8c/	[[	.	.	.	.	.	.	.	.	.	.	.	.	.	.	.	[	.	.	.	16cc/	.	.	.	16ccc'\yy	.	16ccc'\	.
.	.	.	.	.	.	.	.	.	.	.	.	.	.	.	.	.	.	.	.	.	.	.	.	.	.	.	16a/JJ)	.	.	.	16aa'\JJyy	.	16aa'\JJ	.
*Xrep	*	*Xrep	*	*Xrep	*	*Xrep	*	*	*	*	*	*	*	*	*	*	*	*	*	*	*	*	*	*	*	*	*	*	*	*	*	*	*	*
=14	=14	=14	=14	=14	=14	=14	=14	=14	=14	=14	=14	=14	=14	=14	=14	=14	=14	=14	=14	=14	=14	=14	=14	=14	=14	=14	=14	=14	=14	=14	=14	=14	=14	=14
*	*	*	*	*	*	*	*	*	*	*	*	*	*	*	*	*	*	*	*	*	*	*	*	*	*^	*	*	*	*	*	*	*	*	*
*	*	*	*	*	*	*	*	*	*	*	*	*	*	*2\right	*	*2\right	*	*2\right	*	*	*	*2\right	*	*	*	*	*	*	*	*	*	*	*	*	*
!	!	!	!	!	!	!	!	!	!	!	!	!	!	!	!LO:DY:rj	!	!	!	!LO:DY:rj	!	!	!	!	!	!	!	!	!	!	!	!	!	!	!	!
8D\	.	8D\yy	.	8r	.	8r	.	2r	.	2r	.	2r	.	2D\	p	2B\	.	2g\	p	1ryy	.	(2B\ 2G\	.	1ryy	2dd/	2dd\	.	8g/L|	.	1r	.	8gg'\Lyy	.	8gg'\L	.
8r	.	8ryy	.	8d\ 8G\	.	8g/ 8B/	.	.	.	.	.	.	.	.	.	.	.	.	.	.	.	.	.	.	.	.	.	(>16f#/L	.	.	.	(16ff#\Lyy	.	(16ff#\L	.
.	.	.	.	.	.	.	.	.	.	.	.	.	.	.	.	.	.	.	.	.	.	.	.	.	.	.	.	16g/JJ	.	.	.	16gg\JJ)yy	.	16gg\JJ)	.
8D\	.	8D\yy	.	8r	.	8r	.	.	.	.	.	.	.	.	.	.	.	.	.	.	.	.	.	.	.	.	.	16a/LL	.	.	.	(16aa\LLyy	.	(16aa\LL	.
.	.	.	.	.	.	.	.	.	.	.	.	.	.	.	.	.	.	.	.	.	.	.	.	.	.	.	.	16g/	.	.	.	16gg\yy	.	16gg\	.
8r	.	8ryy	.	8d\ 8G\	.	8g/ 8B/	.	.	.	.	.	.	.	.	.	.	.	.	.	.	.	.	.	.	.	.	.	16cc/	.	.	.	16ccc\yy	.	16ccc\	.
.	.	.	.	.	.	.	.	.	.	.	.	.	.	.	f	.	f	.	f	.	.	.	f	.	.	.	f	16b/JJ	.	.	.	16bb\JJ)yy	.	16bb\JJ)	.
8D\L|	f	8D\Lyy|	fyy	8d\	.	8f#/ 8A/	.	8r	.	8C/	.	8D\	.	8D\	.	8A\	.	8f#\	.	.	.	8A\ 8F#\)	.	.	8dd/	8dd\	.	8a/)	.	.	.	8aa\	.	8aa\	.
(16D\L	.	(16D\Lyy	.	(16d\LL	.	(16d/LL	.	(16d/LL	f	8r	.	8r	.	8r	.	8r	.	8r	.	.	.	8r	.	.	8r	8ryy	.	8r	.	.	.	8r	.	8r	.
16E\JJ	.	16E\JJyy	.	16e\JJ	.	16e/JJ	.	16e/JJ	.	.	.	.	.	.	.	.	.	.	.	.	.	.	.	.	.	.	.	.	.	.	.	.	.	.	.
16D/LL	.	16D/LLyy	.	16d/LL	.	16d/LL	.	16d/LL	.	4r	.	4r	.	4r	.	4r	.	4r	.	.	.	4r	.	.	4r	4ryy	.	4r	.	.	.	4r	.	4r	.
16C/	.	16C/yy	.	16c/	.	16c/	.	16c/	.	.	.	.	.	.	.	.	.	.	.	.	.	.	.	.	.	.	.	.	.	.	.	.	.	.	.
16BB/	.	16BB/yy	.	16B/	.	16B/	.	16B/	.	.	.	.	.	.	.	.	.	.	.	.	.	.	.	.	.	.	.	.	.	.	.	.	.	.	.
16AA/JJ	.	16AA/JJyy	.	16A/JJ	.	16A/JJ)	.	16A/JJ)	.	.	.	.	.	.	.	.	.	.	.	.	.	.	.	.	.	.	.	.	.	.	.	.	.	.	.
*	*	*	*	*	*	*	*	*	*	*	*	*	*	*	*	*	*	*	*	*	*	*	*	*	*v	*v	*	*	*	*	*	*	*	*	*
=15	=15	=15	=15	=15	=15	=15	=15	=15	=15	=15	=15	=15	=15	=15	=15	=15	=15	=15	=15	=15	=15	=15	=15	=15	=15	=15	=15	=15	=15	=15	=15	=15	=15	=15
*	*	*	*	*	*	*	*	*	*	*	*	*	*	*	*	*	*	*	*	*	*	*	*	*	*	*	*^	*	*^	*	*	*	*	*
4GG/)	.	4GG/)yy	.	8G/)	.	8G/	.	4G/	.	1r	.	1r	.	1r	.	1r	.	1r	.	1ryy	.	4r	p	1ryy	4r	.	4b/ 4g/	2ryy	.	4gg/	2r	.	2r	.	4bb\	.
.	p	.	pyy	8B/	.	8d/	p	.	.	.	.	.	.	.	.	.	.	.	.	.	.	.	.	.	.	p	.	.	.	.	.	.	.	.	.	.
4r	.	4ryy	.	4G/	.	4g/ 4B/	.	4r	.	.	.	.	.	.	.	.	.	.	.	.	.	4B\ 4GG\	.	.	4dd/ 4g/	.	8.r	.	.	8.r	.	.	.	.	8.r	.
.	.	.	.	.	.	.	.	.	.	.	.	.	.	.	.	.	.	.	.	.	.	.	.	.	.	.	16b/ 16g/	.	.	16gg/	.	.	.	.	16bb\	.
4G\	.	4G\yy	.	8r	.	8r	.	4r	.	.	.	.	.	.	.	.	.	.	.	.	.	4r	.	.	4r	.	4dd/ 4b/	4ryy	.	4bb/	4r	.	4r	.	4ddd\	.
.	.	.	.	8B/	.	8d/	.	.	.	.	.	.	.	.	.	.	.	.	.	.	.	.	.	.	.	.	.	.	.	.	.	.	.	.	.	.
4r	.	4ryy	.	4G/	.	4g/ 4B/	.	8.r	.	.	.	.	.	.	.	.	.	.	.	.	.	4B\ 4G\	.	.	4dd/ 4g/	.	8.r	8.ryy	.	8.r	8.r	.	8.r	.	8.r	.
.	.	.	.	.	.	.	.	16g/	.	.	.	.	.	.	.	.	.	.	.	.	.	.	.	.	.	.	16g/	16g\	.	16gg/	16gg\	.	16gg\	.	16gg\	.
*	*	*	*	*	*	*	*	*	*	*	*	*	*	*	*	*	*	*	*	*	*	*	*	*	*	*	*v	*v	*	*	*	*	*	*	*	*
*	*	*	*	*	*	*	*	*	*	*	*	*	*	*	*	*	*	*	*	*	*	*	*	*	*	*	*	*	*v	*v	*	*	*	*	*
!!LO:PB:g=original
=16	=16	=16	=16	=16	=16	=16	=16	=16	=16	=16	=16	=16	=16	=16	=16	=16	=16	=16	=16	=16	=16	=16	=16	=16	=16	=16	=16	=16	=16	=16	=16	=16	=16	=16
*	*	*	*	*	*	*	*	*	*	*	*	*	*	*	*	*	*	*	*	*	*	*clefC4	*	*	*	*	*	*	*	*	*	*	*	*
*	*	*	*	*	*	*	*	*	*	*	*	*	*	*^	*	*	*	*	*	*	*	*	*	*	*	*	*	*	*	*	*	*	*	*
!	!	!	!	!	!	!	!	!	!	!	!	!	!	!	!	!	!	!	!	!	!	!	!	!	!	!	!	!	!	!LO:TX:a:t=Col Clarinetti	!	!	!	!	!
!	!	!	!	!	!	!	!	!	!	!	!	!	!	!	!	!	!	!	!	!	!	!	!	!	!	!	!	!	!	!LO:SIC:v:o:t=t. 18 ukryty	!	!	!	!	!
!	!	!LO:SIC:v:o:t=t. 18-20 ukryte	!	!	!	!	!	!	!	!	!	!	!	!	!	!	!	!	!	!	!	!	!	!	!	!	!	!LO:TX:t=P:problem=diminuendo like accent	!	!LO:TX:t=P:problem=diminuendo like accent	!	!	!	!LO:TX:t=P:problem=diminuendo like accent	!
8C^/	.	8C^/yy	.	8r	.	8r	.	(4.aa\ 4.a^<\	.	4C/	.	1r	.	4.E/	4.C\	.	4.A\	.	4.c\	.	1ryy	.	4.a\ 4.f#^\	sf	1ryy	8r	.	(4.aa\ 4.ff#^<\	sf	(4.aayy\ 4.ff#^<\yy	sf	(4.aa\	.	(4.fff#^<\	sf
8r	.	8ryy	.	8e\ 8c\	.	8a/ 8c/	.	.	.	.	.	.	.	.	.	.	.	.	.	.	.	.	.	.	.	8ee\ 8cc\	.	.	.	.	.	.	.	.	.
*	*	*	*	*rep	*	*rep	*	*	*	*	*	*	*	*	*	*	*	*	*	*	*	*	*	*	*	*rep	*	*	*	*	*	*	*	*	*
8C/	.	8C/yy	.	8r	.	8r	.	.	.	4r	.	.	.	.	.	.	.	.	.	.	.	.	.	.	.	8r	.	.	.	.	.	.	.	.	.
8r	.	8ryy	.	8e\ 8c\	.	8a/ 8c/	.	8gg\)	.	.	.	.	.	8r	8ryy	.	8r	.	8r	.	.	.	8g\ 8e\	.	.	8ee\ 8cc\	.	8gg\ 8ee\)	.	8ggyy\ 8ee\)yy	.	8gg\)	.	8eee\)	.
*	*	*	*	*Xrep	*	*Xrep	*	*	*	*	*	*	*	*	*	*	*	*	*	*	*	*	*	*	*	*Xrep	*	*Xtuplet	*	*Xtuplet	*	*Xtuplet	*	*Xtuplet	*
*	*	*	*	*rep	*	*rep	*	*Xtuplet	*	*	*	*	*	*	*	*	*	*	*	*	*	*	*Xtuplet	*	*	*rep	*	*	*	*	*	*	*	*	*
8C/	.	8C/yy	.	8r	.	8r	.	(12gg\L	.	2r	.	.	.	2r	2ryy	.	2r	.	2r	.	.	.	(12g\L 12e\	.	.	8r	.	(12gg\L 12ee\	.	(12ggyy\L 12ee\yy	.	(12gg\L	.	(12eee\L	.
.	.	.	.	.	.	.	.	12ff#\)	.	.	.	.	.	.	.	.	.	.	.	.	.	.	12f#\ 12d\)	.	.	.	.	12ff#\ 12dd\)	.	12ff#yy\ 12dd\)yy	.	12ff#\)	.	12ddd\)	.
8r	.	8ryy	.	8e\ 8c\	.	8a/ 8c/	.	.	.	.	.	.	.	.	.	.	.	.	.	.	.	.	.	.	.	8ee\ 8cc\	.	.	.	.	.	.	.	.	.
.	.	.	.	.	.	.	.	12ee'\J	.	.	.	.	.	.	.	.	.	.	.	.	.	.	12e\J 12c'\	.	.	.	.	12ee\J 12cc'\	.	12eeyy\J 12cc'\yy	.	12ee'\J	.	12ccc'\J	.
*	*	*	*	*Xrep	*	*Xrep	*	*	*	*	*	*	*	*	*	*	*	*	*	*	*	*	*	*	*	*Xrep	*	*	*	*	*	*	*	*	*
*	*	*	*	*rep	*	*rep	*	*	*	*	*	*	*	*	*	*	*	*	*	*	*	*	*	*	*	*rep	*	*	*	*	*	*	*	*	*
8C/	.	8C/yy	.	8r	.	8r	.	(12ee\L	.	.	.	.	.	.	.	.	.	.	.	.	.	.	(12e\L 12c\	.	.	8r	.	(12ee\L 12cc\	.	(12eeyy\L 12cc\yy	.	(12ee\L	.	(12ccc\L	.
.	.	.	.	.	.	.	.	12dd\)	.	.	.	.	.	.	.	.	.	.	.	.	.	.	12d\ 12B\)	.	.	.	.	12dd\ 12b\)	.	12ddyy\ 12b\)yy	.	12dd\)	.	12bb\)	.
8r	.	8ryy	.	8e\ 8c\	.	8a/ 8c/	.	.	.	.	.	.	.	.	.	.	.	.	.	.	.	.	.	.	.	8ee\ 8cc\	.	.	.	.	.	.	.	.	.
.	.	.	.	.	.	.	.	12cc'\J	.	.	.	.	.	.	.	.	.	.	.	.	.	.	12c\J 12A'\	.	.	.	.	12cc\J 12a'\	.	12ccyy\J 12a'\yy	.	12cc'\J	.	12aa'\J	.
*	*	*	*	*Xrep	*	*Xrep	*	*	*	*	*	*	*	*	*	*	*	*	*	*	*	*	*	*	*	*Xrep	*	*	*	*	*	*	*	*	*
*	*	*	*	*	*	*	*	*	*	*	*	*	*	*v	*v	*	*	*	*	*	*	*	*	*	*	*	*	*	*	*	*	*	*	*	*
=17	=17	=17	=17	=17	=17	=17	=17	=17	=17	=17	=17	=17	=17	=17	=17	=17	=17	=17	=17	=17	=17	=17	=17	=17	=17	=17	=17	=17	=17	=17	=17	=17	=17	=17
*	*	*	*	*	*	*	*	*	*	*	*	*	*	*	*	*	*	*	*	*	*	*	*	*	*^	*	*	*	*	*	*	*	*	*
8D\	.	8D\yy	.	8r	.	8r	.	12b'\L	.	8C/	.	8r	.	8D\	.	8G/	.	8B\	.	1ryy	.	12B\L 12G'\	.	1ryy	8r	2ryy	.	12b\L 12g'\	.	12b/L 12g'/	.	12b'\L	.	12gg'\L	.
.	.	.	.	.	.	.	.	(12ee\	.	.	.	.	.	.	.	.	.	.	.	.	.	(12e\ 12c\	.	.	.	.	.	(12ee\ 12cc\	.	(12ee/ 12cc/	.	(12ee\	.	(12ccc\	.
8r	.	8ryy	.	8d\ 8G\	.	8g/ 8B/	.	.	.	8r	.	8D\	.	8r	.	8r	.	8r	.	.	.	.	.	.	8dd/ 8g/	.	.	.	.	.	.	.	.	.	.
.	.	.	.	.	.	.	.	12dd\J)	.	.	.	.	.	.	.	.	.	.	.	.	.	12d\J 12B\)	.	.	.	.	.	12dd\J 12b\)	.	12dd/J 12b/)	.	12dd\J)	.	12bb\J)	.
*rep	*	*rep	*	*	*	*	*	*	*	*rep	*	*rep	*	*	*	*	*	*	*	*	*	*tremolo	*	*	*rep	*	*	*	*	*	*	*	*	*	*
8D\	.	8D\yy	.	8r	.	8r	.	12b'\L	.	8C/	.	8r	.	8D\	.	8B\	.	8g\	.	.	.	12B/L 12G'/	.	.	8r	.	.	12dd\L 12b'\	.	12bb\L 12dd\	.	12b'\L	.	12gg'\L	.
.	.	.	.	.	.	.	.	12gg'\	.	.	.	.	.	.	.	.	.	.	.	.	.	12B/ 12G'/	.	.	.	.	.	12dd\ 12b'\	.	12bb\ 12dd\	.	12b'\	.	12gg'\	.
8r	.	8ryy	.	8d\ 8G\	.	8g/ 8B/	.	.	.	8r	.	8D\	.	8r	.	8r	.	8r	.	.	.	.	.	.	8dd/ 8g/	.	.	.	.	.	.	.	.	.	.
.	.	.	.	.	.	.	.	12gg'\J	.	.	.	.	.	.	.	.	.	.	.	.	.	12B/J 12G'/	.	.	.	.	.	12dd\J 12b'\	.	12bb\J 12dd\	.	12b'\J	.	12gg'\J	.
*Xrep	*	*Xrep	*	*	*	*	*	*	*	*Xrep	*	*Xrep	*	*	*	*	*	*	*	*	*	*Xtremolo	*	*	*Xrep	*	*	*	*	*	*	*	*	*	*
*rep	*	*rep	*	*	*	*	*	*	*	*rep	*	*rep	*	*	*	*	*	*	*	*	*	*	*	*	*	*	*	*	*	*	*	*	*	*	*
8D\	.	8D\yy	.	8r	.	8r	.	12a\L	.	8C/	.	8r	.	8D\	.	8A\	.	8f#\	.	.	.	12A/L 12F#'/	.	.	8r	8ryy	.	12a/L 12f#'/	.	12ff#\L 12a'\	.	12a'/L	.	12ff#'\L	.
.	.	.	.	.	.	.	.	(12dd\	.	.	.	.	.	.	.	.	.	.	.	.	.	(12d/ 12B/	.	.	.	.	.	(12dd/ 12b/	.	(12bb\ 12dd\	.	(12dd/	.	(12bb\	.
8r	.	8ryy	.	8d\ 8A\	.	8f#/ 8c/	.	.	.	8r	.	8D\	.	8r	.	8r	.	8r	.	.	.	.	.	.	8dd/	8cc\	.	.	.	.	.	.	.	.	.
.	.	.	.	.	.	.	.	12cc\J	.	.	.	.	.	.	.	.	.	.	.	.	.	12c/J 12A/)	.	.	.	.	.	12cc/J 12a/)	.	12aa\J 12cc\)	.	12cc/J)	.	12aa\J)	.
*Xrep	*	*Xrep	*	*	*	*	*	*	*	*Xrep	*	*Xrep	*	*	*	*	*	*	*	*	*	*tremolo	*	*	*rep	*rep	*	*	*	*	*	*	*	*	*
*rep	*	*rep	*	*	*	*	*	*	*	*rep	*	*rep	*	*	*	*	*	*	*	*	*	*	*	*	*	*	*	*	*	*	*	*	*	*	*
8D\	.	8D\yyyy	.	8r	.	8r	.	12a'\L	.	8C/	.	8r	.	8D\	.	8A\	.	8f#\	.	.	.	12A/L 12F#'/	.	.	8r	8ryy	.	12a/L 12f#'/	.	12ff#\L 12a\	.	12a'/L	.	12ff#\L	.
.	.	.	.	.	.	.	.	12ff#\ 12a'\	.	.	.	.	.	.	.	.	.	.	.	.	.	12A/ 12F#'/	.	.	.	.	.	12a/ 12f#'/	.	12ff#\ 12a\	.	12a'/	.	12ff#\	.
8r	.	8ryy	.	8d\ 8A\	.	8f#/ 8c/	.	.	.	8r	.	8D\	.	8r	.	8r	.	8r	.	.	.	.	.	.	8dd/	8cc\	.	.	.	.	.	.	.	.	.
.	.	.	.	.	.	.	.	12ff#\J 12a'\	.	.	.	.	.	.	.	.	.	.	.	.	.	12A/J 12F#'/	.	.	.	.	.	12a/J 12f#'/	.	12ff#\J 12a\	.	12a'/J	.	12ff#\J	.
*Xrep	*	*Xrep	*	*	*	*	*	*	*	*Xrep	*	*Xrep	*	*	*	*	*	*	*	*	*	*Xtremolo	*	*	*Xrep	*Xrep	*	*	*	*	*	*	*	*	*
*	*	*	*	*	*	*	*	*	*	*	*	*	*	*	*	*	*	*	*	*	*	*	*	*	*v	*v	*	*	*	*	*	*	*	*	*
=18	=18	=18	=18	=18	=18	=18	=18	=18	=18	=18	=18	=18	=18	=18	=18	=18	=18	=18	=18	=18	=18	=18	=18	=18	=18	=18	=18	=18	=18	=18	=18	=18	=18	=18
16GG/	.	16GG/yy	.	16d\ 16G\	f	16g/ 16B/	.	16gg\ 16b\	sf	8C/	.	8GG/	.	8G\ 8GG\	.	8B\	.	8g\	.	2ryy	.	16B/ 16G/	.	2ryy	16dd/ 16g/	.	16g/	.	16gg\ 16b\	.	16g/	.	16gg\	.
*	*	*	*	*	*	*	*	*	*	*	*	*	*	*	*	*	*	*	*	*	*	*clefF4	*	*	*	*	*	*	*	*	*	*	*	*
!	!	!	!	!	!	!	!	!LO:SIC:v:o:t=kształt łuku	!	!	!	!	!	!	!	!	!	!	!	!	!	!	!	!	!	!	!	!	!LO:SIC:v:o:t=kształt łuku	!	!	!	!	!
.	f	.	fyy	.	.	.	.	.	.	.	.	.	.	.	.	.	.	.	.	.	.	.	f	.	.	.	.	.	.	.	.	.	.	.
(16G\LL	.	(16G\LLyy	.	(16g\LL	.	(16g\LL	.	(16g/LL	.	.	.	.	.	.	.	.	.	.	.	.	.	(16G\LL	.	.	16ryy	.	(16g/LL	.	(16g/LL	.	16g\LL	.	(16gg\LL	.
16F#\	.	16F#\yy	.	16f#\	.	16a\	.	16a/	.	8r	.	8r	.	8r	.	8r	.	8r	.	.	.	16F#\	.	.	8r	.	16a/	.	16a/	.	16a\	.	16aa\	.
16E\JJ	.	16E\JJyy	.	16e\JJ	.	16b\JJ	.	16b/JJ	.	.	.	.	.	.	.	.	.	.	.	.	.	16E\JJ	.	.	.	.	16b/JJ	.	16b/JJ	.	16b\JJ	.	16bb\JJ	.
16D/LL	.	16D/LLyy	.	16d\LL	.	16cc\LL	.	16cc\LL	.	4r	.	4r	.	4r	.	4r	.	4r	.	.	.	16D/LL	.	.	4r	.	16cc/LL	.	16cc\LL	.	16cc\LL	.	16ccc\LL	.
16C/	.	16C/yy	.	16c\	.	16dd\	.	16dd\	.	.	.	.	.	.	.	.	.	.	.	.	.	16C/	.	.	.	.	16dd/	.	16dd\	.	16dd\	.	16ddd\	.
16BB/	.	16BB/yy	.	16B\	.	16ee\	.	16ee\	.	.	.	.	.	.	.	.	.	.	.	.	.	16BB/	.	.	.	.	16ee/	.	16ee\	.	16ee\	.	16eee\	.
16AA/JJ	.	16AA/JJyy	.	16A\JJ	.	16ff#\JJ	.	16ff#\JJ	.	.	.	.	.	.	.	.	.	.	.	.	.	16AA/JJ	.	.	.	.	16ff#/JJ)	.	16ff#\JJ	.	16ff#\JJ	.	16fff#\JJ	.
8GG/)	.	8GG/)yy	.	8G/)	.	8gg\)	.	8gg\)	.	8C/	.	8GG/	.	8G\ 8GG\	.	8B\	.	8g\	.	4ryy	.	8GG/)	.	4ryy	8dd/ 8g/	.	8gg\	.	8gg\)	.	8gg\	.	8ggg\)	.
8ryy	.	8ryy	.	8r	.	8r	.	8r	.	8r	.	8ryy	.	8r	.	8r	.	8r	.	.	.	8r	.	.	8r	.	8r	.	8r	.	8r	.	8r	.
!!LO:PB:g=original
=19:|!	=19:|!	=19:|!	=19:|!	=19:|!	=19:|!	=19:|!	=19:|!	=19:|!	=19:|!	=19:|!	=19:|!	=19:|!	=19:|!	=19:|!	=19:|!	=19:|!	=19:|!	=19:|!	=19:|!	=19:|!	=19:|!	=19:|!	=19:|!	=19:|!	=19:|!	=19:|!	=19:|!	=19:|!	=19:|!	=19:|!	=19:|!	=19:|!	=19:|!	=19:|!
*	*	*	*	*	*	*	*	*	*	*	*	*	*	*	*	*	*	*	*	*	*	*	*	*	*	*	*^	*	*	*	*	*	*	*
!	!	!LO:SIC:v:o:t=t. 21-22 ukryte	!	!	!	!	!	!	!	!	!	!	!	!	!	!	!	!	!	!	!	!	!	!	!	!	!	!	!	!	!	!	!	!LO:SIC:v:t=dopisek niebieską kredką oznaczający drugą voltę	!
8G\L	.	8G\Lyy	.	8d\L 8B\	.	8g/L	.	(16g\LL	.	8C/	.	8GG/	.	8G\ 8GG\	.	8B\	.	8g\	.	1ryy	.	8E\ 8C~\	.	1ryy	8dd/ 8g/	.	8g/	8g\	.	8gg\ 8b\	.	8g/	.	8gg\	.
.	.	.	.	.	.	.	.	16b\)	.	.	.	.	.	.	.	.	.	.	.	.	.	.	.	.	.	.	.	.	.	.	.	.	.	.	.
8F#\	.	8F#\yy	.	8d\J 8A\	.	8a/	.	16dd'\	.	8r	.	8r	.	8r	.	8r	.	8r	.	.	.	8r	.	.	8r	.	8r	8ryy	.	8r	.	8r	.	8r	.
.	.	.	.	.	.	.	.	16a'\JJ	.	.	.	.	.	.	.	.	.	.	.	.	.	.	.	.	.	.	.	.	.	.	.	.	.	.	.
8E\	.	8E\yy	.	8c\L	.	8g/	.	16cc'/LL	.	4r	.	4r	.	4r	.	4r	.	4r	.	.	.	4r	.	.	4r	.	4r	4ryy	.	4r	.	4r	.	4r	.
.	.	.	.	.	.	.	.	16g'/	.	.	.	.	.	.	.	.	.	.	.	.	.	.	.	.	.	.	.	.	.	.	.	.	.	.	.
8D\J	.	8D\Jyy	.	8d\J 8B\	.	8g/J	.	16b'/	.	.	.	.	.	.	.	.	.	.	.	.	.	.	.	.	.	.	.	.	.	.	.	.	.	.	.
.	.	.	.	.	.	.	.	16g'/JJ	.	.	.	.	.	.	.	.	.	.	.	.	.	.	.	.	.	.	.	.	.	.	.	.	.	.	.
.	.	.	.	.	.	.	.	(8qb/	.	.	.	.	.	.	.	.	.	.	.	.	.	.	.	.	.	.	.	.	.	.	.	.	.	.	.
8C/L	.	8C/Lyy	.	8e\L 8c\	.	8a/L	.	16a\LL)	.	2r	.	2r	.	2r	.	2r	.	2r	.	.	.	2r	.	.	2r	.	2r	2ryy	.	2r	.	2r	.	2r	.
.	.	.	.	.	.	.	.	16g#X'\	.	.	.	.	.	.	.	.	.	.	.	.	.	.	.	.	.	.	.	.	.	.	.	.	.	.	.
8C/	.	8C/yy	.	8e\ 8c\	.	8a/	.	16a'\	.	.	.	.	.	.	.	.	.	.	.	.	.	.	.	.	.	.	.	.	.	.	.	.	.	.	.
.	.	.	.	.	.	.	.	16ee'\JJ	.	.	.	.	.	.	.	.	.	.	.	.	.	.	.	.	.	.	.	.	.	.	.	.	.	.	.
8D/	.	8D/yy	.	8d\ 8c\	.	8a/	.	(16cc#X\LL	.	.	.	.	.	.	.	.	.	.	.	.	.	.	.	.	.	.	.	.	.	.	.	.	.	.	.
.	.	.	.	.	.	.	.	16dd\)	.	.	.	.	.	.	.	.	.	.	.	.	.	.	.	.	.	.	.	.	.	.	.	.	.	.	.
8D/J	.	8D/Jyy	.	8d\J 8c\	.	8a/J	.	16ee'\	.	.	.	.	.	.	.	.	.	.	.	.	.	.	.	.	.	.	.	.	.	.	.	.	.	.	.
.	.	.	.	.	.	.	.	16ff#'\JJ	.	.	.	.	.	.	.	.	.	.	.	.	.	.	.	.	.	.	.	.	.	.	.	.	.	.	.
=20	=20	=20	=20	=20	=20	=20	=20	=20	=20	=20	=20	=20	=20	=20	=20	=20	=20	=20	=20	=20	=20	=20	=20	=20	=20	=20	=20	=20	=20	=20	=20	=20	=20	=20	=20
*	*	*	*	*	*	*	*	*	*	*	*	*	*	*	*	*	*	*	*	*	*	*clefC4	*	*	*	*	*	*	*	*	*	*	*	*	*
!	!	!	!	!	!	!	!	!	!	!	!	!	!	!	!	!	!	!	!	!	!	!	!	!	!	!	!	!	!	!	!	!LO:TX:a:t=Col Fl.	!	!	!
!	!	!	!	!	!	!	!	!	!	!	!	!	!	!	!	!	!	!	!	!	!	!	!	!	!	!	!	!	!	!	!	!LO:SIC:v:o:t=t. 22 ukryty	!	!	!
8GG/	.	8GG/yy	.	8d\ 8B\	.	8g/	.	8gg\	.	1r	.	1r	.	1r	.	1r	.	1r	.	1ryy	.	8g\L 8G'\	.	1ryy	8dd\L< 8g\	.	(16g/LL	8g\L	.	8gg\L 8b\	.	(16gg'\LLyy	.	(16gg'\LL	.
.	.	.	.	.	.	.	.	.	.	.	.	.	.	.	.	.	.	.	.	.	.	.	.	.	.	.	16b/)	.	.	.	.	16bb'\)yy	.	16bb'\)	.
8r	.	8ryy	.	8r	.	8r	.	8r	.	.	.	.	.	.	.	.	.	.	.	.	.	8f#\ 8F#'\	.	.	8dd\	.	16dd'/	8a\	.	8aa\J 8dd\	.	16ddd'\yy	.	16ddd'\	.
.	.	.	.	.	.	.	.	.	.	.	.	.	.	.	.	.	.	.	.	.	.	.	.	.	.	.	16a'/JJ	.	.	.	.	16aa'\JJyy	.	16aa'\JJ	.
4r	.	4ryyyy	.	4r	.	4r	.	4r	.	.	.	.	.	.	.	.	.	.	.	.	.	8e\ 8E'\	.	.	8ee\ 8cc\	.	16cc'/LL	8g\	.	8gg\L 8cc\	.	16ccc'\LLyy	.	16ccc'\LL	.
.	.	.	.	.	.	.	.	.	.	.	.	.	.	.	.	.	.	.	.	.	.	.	.	.	.	.	16g'/	.	.	.	.	16gg'\yy	.	16gg'\	.
.	.	.	.	.	.	.	.	.	.	.	.	.	.	.	.	.	.	.	.	.	.	8d\J 8D'\	.	.	8dd\J 8g\	.	16b'/	8b\J	.	8gg\J 8dd\	.	16bb'\yy	.	16bb'\	.
.	.	.	.	.	.	.	.	.	.	.	.	.	.	.	.	.	.	.	.	.	.	.	.	.	.	.	16g'/JJ	.	.	.	.	16gg'\JJyy	.	16gg'\JJ	.
.	.	.	.	.	.	.	.	.	.	.	.	.	.	.	.	.	.	.	.	.	.	.	.	.	.	.	(>8qb/	.	.	.	.	(8qbb/yy	.	(8qbb/	.
2r	.	2ryy	.	2r	.	2r	.	2r	.	.	.	.	.	.	.	.	.	.	.	.	.	8c\L 8C'\	.	.	8ee\L 8cc\	.	16a/LL)	8a\L	.	8aa\L 8cc\	.	16aa\LL)yy	.	16aa\LL)	.
.	.	.	.	.	.	.	.	.	.	.	.	.	.	.	.	.	.	.	.	.	.	.	.	.	.	.	16g#X/	.	.	.	.	16gg#X'\yy	.	16gg#X'\	.
.	.	.	.	.	.	.	.	.	.	.	.	.	.	.	.	.	.	.	.	.	.	8c\J 8C'\	.	.	8ee\J 8cc\	.	16a/	8a\J	.	8aa\J 8cc\	.	16aa'\yy	.	16aa'\	.
.	.	.	.	.	.	.	.	.	.	.	.	.	.	.	.	.	.	.	.	.	.	.	.	.	.	.	16ee/JJ	.	.	.	.	16eee'\JJyy	.	16eee'\JJ	.
.	.	.	.	.	.	.	.	.	.	.	.	.	.	.	.	.	.	.	.	.	.	8d\L 8D'\	.	.	8dd\L	.	(16cc#X/LL	8a\L	.	8ff#\L 8a\	.	(16ccc#X\LLyy	.	(16ccc#X\LL	.
.	.	.	.	.	.	.	.	.	.	.	.	.	.	.	.	.	.	.	.	.	.	.	.	.	.	.	16dd/)	.	.	.	.	16ddd\)yy	.	16ddd\)	.
.	.	.	.	.	.	.	.	.	.	.	.	.	.	.	.	.	.	.	.	.	.	8d\J 8D'\	.	.	8dd\J	.	16ccn'/	8a\J	.	8ff#\J 8a\	.	16cccn'\yy	.	16cccn'\	.
.	.	.	.	.	.	.	.	.	.	.	.	.	.	.	.	.	.	.	.	.	.	.	.	.	.	.	16a'/JJ	.	.	.	.	16aa'\JJyy	.	16aa'\JJ	.
!!LO:PB:g=original
=21	=21	=21	=21	=21	=21	=21	=21	=21	=21	=21	=21	=21	=21	=21	=21	=21	=21	=21	=21	=21	=21	=21	=21	=21	=21	=21	=21	=21	=21	=21	=21	=21	=21	=21	=21
*	*	*	*	*	*	*	*	*	*	*	*	*	*	*	*	*	*	*	*	*	*	*clefC4	*	*	*	*	*	*	*	*	*	*	*	*	*
*	*	*	*	*	*	*	*	*	*	*	*	*	*	*	*	*	*	*	*	*^	*	*^	*	*	*	*	*	*	*	*	*	*	*	*	*
!	!	!LO:SIC:v:o:t=t. 23-24 ukryte	!	!	!	!	!	!	!	!	!	!	!	!	!	!	!	!	!	!	!	!	!	!	!	!	!	!	!	!	!	!	!	!	!	!	!
8G\L	.	8G\Lyy	.	8d\L 8B\	.	8g/L	.	(16g/LL	.	1r	.	1r	.	1r	.	1r	.	1r	.	8g/	8g\	.	8B/	8G\	.	1ryy	8dd/ 8g/	.	8g/	8g\	.	8gg\ 8b\	.	8gg\	.	8gg\	.
.	.	.	.	.	.	.	.	16b/)	.	.	.	.	.	.	.	.	.	.	.	.	.	.	.	.	.	.	.	.	.	.	.	.	.	.	.	.	.
8F#\	.	8F#\yy	.	8d\ 8B\	.	8a/	.	16dd'/	.	.	.	.	.	.	.	.	.	.	.	8r	8ryy	.	8r	8ryy	.	.	8r	.	8r	8ryy	.	8r	.	8r	.	8r	.
.	.	.	.	.	.	.	.	16a'/JJ	.	.	.	.	.	.	.	.	.	.	.	.	.	.	.	.	.	.	.	.	.	.	.	.	.	.	.	.	.
8E\	.	8E\yy	.	8c\	.	8g/	.	16cc'/LL	.	.	.	.	.	.	.	.	.	.	.	4r	4ryy	.	4r	4ryy	.	.	4r	.	4r	4ryy	.	4r	.	4r	.	4r	.
.	.	.	.	.	.	.	.	16g'/	.	.	.	.	.	.	.	.	.	.	.	.	.	.	.	.	.	.	.	.	.	.	.	.	.	.	.	.	.
8D\J	.	8D\Jyy	.	8d\J 8B\	.	8g/J	.	16b'/	.	.	.	.	.	.	.	.	.	.	.	.	.	.	.	.	.	.	.	.	.	.	.	.	.	.	.	.	.
.	.	.	.	.	.	.	.	16g'/JJ	.	.	.	.	.	.	.	.	.	.	.	.	.	.	.	.	.	.	.	.	.	.	.	.	.	.	.	.	.
.	.	.	.	.	.	.	.	(8qb/	.	.	.	.	.	.	.	.	.	.	.	.	.	.	.	.	.	.	.	.	.	.	.	.	.	.	.	.	.
*	*	*	*	*	*	*tremolo	*	*	*	*	*	*	*	*	*	*	*	*	*	*	*	*	*	*	*	*	*	*	*	*	*	*	*	*	*	*	*
8C/L	.	8C/Lyy	.	8e\L 8c\	.	8a/L	.	16a/LL)	.	.	.	.	.	.	.	.	.	.	.	2r	2ryy	.	2r	2ryy	.	.	2r	.	2r	2ryy	.	2r	.	2r	.	2r	.
.	.	.	.	.	.	.	.	16g#X'/	.	.	.	.	.	.	.	.	.	.	.	.	.	.	.	.	.	.	.	.	.	.	.	.	.	.	.	.	.
8C/J	.	8C/Jyy	.	8e\J 8c\	.	8a/	.	16a'/	.	.	.	.	.	.	.	.	.	.	.	.	.	.	.	.	.	.	.	.	.	.	.	.	.	.	.	.	.
.	.	.	.	.	.	.	.	16ee'/JJ	.	.	.	.	.	.	.	.	.	.	.	.	.	.	.	.	.	.	.	.	.	.	.	.	.	.	.	.	.
8D/L	.	8D/Lyy	.	8d\L 8c\	.	8a/	.	(16cc#X\LL	.	.	.	.	.	.	.	.	.	.	.	.	.	.	.	.	.	.	.	.	.	.	.	.	.	.	.	.	.
.	.	.	.	.	.	.	.	16dd\)	.	.	.	.	.	.	.	.	.	.	.	.	.	.	.	.	.	.	.	.	.	.	.	.	.	.	.	.	.
8D/J	.	8D/Jyy	.	8d\J 8c\	.	8a/J	.	16ee'\	.	.	.	.	.	.	.	.	.	.	.	.	.	.	.	.	.	.	.	.	.	.	.	.	.	.	.	.	.
.	.	.	.	.	.	.	.	16ff#'\JJ	.	.	.	.	.	.	.	.	.	.	.	.	.	.	.	.	.	.	.	.	.	.	.	.	.	.	.	.	.
*	*	*	*	*	*	*Xtremolo	*	*	*	*	*	*	*	*	*	*	*	*	*	*	*	*	*	*	*	*	*	*	*	*	*	*	*	*	*	*	*
*	*	*	*	*	*	*	*	*	*	*	*	*	*	*	*	*	*	*	*	*v	*v	*	*	*	*	*	*	*	*	*	*	*	*	*	*	*	*
*	*	*	*	*	*	*	*	*	*	*	*	*	*	*	*	*	*	*	*	*	*	*v	*v	*	*	*	*	*	*	*	*	*	*	*	*	*
=22	=22	=22	=22	=22	=22	=22	=22	=22	=22	=22	=22	=22	=22	=22	=22	=22	=22	=22	=22	=22	=22	=22	=22	=22	=22	=22	=22	=22	=22	=22	=22	=22	=22	=22	=22
!	!	!	!	!	!	!	!	!	!	!	!	!	!	!	!	!	!	!	!	!	!	!	!	!	!	!	!	!	!	!	!	!LO:TX:a:t=Col Fl.	!	!	!
!	!	!	!	!	!	!	!	!	!	!	!	!	!	!	!	!	!	!	!	!	!	!	!	!	!	!	!	!	!	!	!	!LO:SIC:v:o:t=t. 24 ukryty	!	!	!
8GG/	.	8GG/yy	.	8d\ 8B\	.	8g/	.	8gg\	.	1r	.	1r	.	1r	.	1r	.	1r	.	1r	.	8g\L 8G\	.	1ryy	8dd\L 8g\	.	16g/LL	8g\L	.	8gg\L 8b\	.	(16gg'\LLyy	.	(16gg'\LL	.
.	.	.	.	.	.	.	.	.	.	.	.	.	.	.	.	.	.	.	.	.	.	.	.	.	.	.	16b/	.	.	.	.	16bb'\)yy	.	16bb'\)	.
8r	.	8ryy	.	8r	.	8r	.	8r	.	.	.	.	.	.	.	.	.	.	.	.	.	8f#\ 8F#\	.	.	8dd\	.	16dd/	8a\	.	8aa\ 8dd\	.	16ddd'\yy	.	16ddd'\	.
.	.	.	.	.	.	.	.	.	.	.	.	.	.	.	.	.	.	.	.	.	.	.	.	.	.	.	16a/JJ	.	.	.	.	16aa'\JJyy	.	16aa'\JJ	.
4r	.	4ryy	.	4r	.	4r	.	4r	.	.	.	.	.	.	.	.	.	.	.	.	.	8e\ 8E\	.	.	8ee\ 8cc\	.	16cc/LL	8g\	.	8gg\ 8cc\	.	16ccc'\LLyy	.	16ccc'\LL	.
.	.	.	.	.	.	.	.	.	.	.	.	.	.	.	.	.	.	.	.	.	.	.	.	.	.	.	16g/	.	.	.	.	16gg'\yy	.	16gg'\	.
.	.	.	.	.	.	.	.	.	.	.	.	.	.	.	.	.	.	.	.	.	.	8d\J 8D\	.	.	8dd\J 8g\	.	16b/	8b\J	.	8gg\J 8dd\	.	16bb'\yy	.	16bb'\	.
.	.	.	.	.	.	.	.	.	.	.	.	.	.	.	.	.	.	.	.	.	.	.	.	.	.	.	16g/JJ	.	.	.	.	16gg'\JJyy	.	16gg'\JJ	.
.	.	.	.	.	.	.	.	.	.	.	.	.	.	.	.	.	.	.	.	.	.	.	.	.	.	.	(>8qb/	.	.	.	.	(8qbb/yy	.	(8qbb/	.
2r	.	2ryy	.	2r	.	2r	.	2r	.	.	.	.	.	.	.	.	.	.	.	.	.	8c\L 8C\	.	.	8ee\L 8cc\	.	16a/LL)	8a\L	.	8aa\L 8cc\	.	16aa\LL)yy	.	16aa\LL)	.
.	.	.	.	.	.	.	.	.	.	.	.	.	.	.	.	.	.	.	.	.	.	.	.	.	.	.	16g#X/	.	.	.	.	16gg#X'\yy	.	16gg#X'\	.
.	.	.	.	.	.	.	.	.	.	.	.	.	.	.	.	.	.	.	.	.	.	8c\J 8C\	.	.	8ee\J 8cc\	.	16a/	8a\J	.	8aa\J 8cc\	.	16aa'\yy	.	16aa'\	.
.	.	.	.	.	.	.	.	.	.	.	.	.	.	.	.	.	.	.	.	.	.	.	.	.	.	.	16ee/JJ	.	.	.	.	16eee'\JJyy	.	16eee'\JJ	.
.	.	.	.	.	.	.	.	.	.	.	.	.	.	.	.	.	.	.	.	.	.	8A\L 8C\	.	.	8dd\L 8cc\	.	16cc#X/LL	8a\L	.	8ff#\L 8a\	.	(16ccc#X\LLyy	.	(16ccc#X\LL	.
.	.	.	.	.	.	.	.	.	.	.	.	.	.	.	.	.	.	.	.	.	.	.	.	.	.	.	16dd/	.	.	.	.	16ddd\)yy	.	16ddd\)	.
.	.	.	.	.	.	.	.	.	.	.	.	.	.	.	.	.	.	.	.	.	.	8A\J 8C\	.	.	8dd\J 8cc\	.	16ccn/	8a\J	.	8ff#\J 8a\	.	16cccn'\yy	.	16cccn'\	.
.	.	.	.	.	.	.	.	.	.	.	.	.	.	.	.	.	.	.	.	.	.	.	.	.	.	.	16a/JJ	.	.	.	.	16aa'\JJyy	.	16aa'\JJ	.
!!LO:PB:g=original
=23	=23	=23	=23	=23	=23	=23	=23	=23	=23	=23	=23	=23	=23	=23	=23	=23	=23	=23	=23	=23	=23	=23	=23	=23	=23	=23	=23	=23	=23	=23	=23	=23	=23	=23	=23
!	!	!	!	!	!	!	!	!	!	!	!	!	!	!	!	!	!	!	!	!	!	!LO:CL:ed	!	!	!	!	!	!	!	!	!	!	!	!	!
*	*	*	*	*	*	*	*	*	*	*	*	*	*	*	*	*	*	*	*	*	*	*clefF4	*	*	*	*	*	*	*	*	*	*	*	*	*
!	!	!LO:SIC:v:o:t=t.25-26 ukryte	!	!	!	!	!	!	!	!	!	!	!	!	!	!	!	!	!	!	!	!LO:SIC:v:o:t=brak zmiany na klucz basowy	!	!	!	!	!	!	!	!	!	!	!	!	!
8GG/	.	8GG/yy	.	8d\ 8G\	.	8g/ 8B/	.	(16g/LL	.	1ryy	.	1ryy	.	2r	.	2r	.	2r	.	1ryy	.	8B\ 8GG\	.	1ryy	8dd\ 8g\	.	(16g/LL	8g\	.	8gg\ 8b\	.	8gg\	.	(16gg\LL	.
.	.	.	.	.	.	.	.	16b/)	.	.	.	.	.	.	.	.	.	.	.	.	.	.	.	.	.	.	16b/)	.	.	.	.	.	.	16bb\)	.
8r	.	8ryy	.	8r	.	8r	.	16dd'/	.	.	.	.	.	.	.	.	.	.	.	.	.	8r	.	.	8r	.	16dd'/	8r	.	8r	.	8r	.	16ddd'\	.
.	.	.	.	.	.	.	.	16dd'/JJ	.	.	.	.	.	.	.	.	.	.	.	.	.	.	.	.	.	.	16dd'/JJ	.	.	.	.	.	.	16ddd'\JJ	.
*	*	*	*	*rep	*	*rep	*	*	*	*	*	*	*	*	*	*	*	*	*	*	*	*	*	*	*	*	*	*	*	*	*	*	*	*	*
8G\	.	8G\yy	.	8d\ 8G\	.	8g/ 8B/	.	(16ee\LL	.	.	.	.	.	.	.	.	.	.	.	.	.	8B\ 8G\	.	.	8dd\ 8g\	.	(16ee/LL	8g\	.	4r	.	4r	.	(16eee\LL	.
.	.	.	.	.	.	.	.	16dd\)	.	.	.	.	.	.	.	.	.	.	.	.	.	.	.	.	.	.	16dd/)	.	.	.	.	.	.	16ddd\)	.
8r	.	8ryy	.	8r	.	8r	.	16dd'\	.	.	.	.	.	.	.	.	.	.	.	.	.	8r	.	.	8r	.	16dd'/	8r	.	.	.	.	.	16ddd'\	.
.	.	.	.	.	.	.	.	16dd'\JJ	.	.	.	.	.	.	.	.	.	.	.	.	.	.	.	.	.	.	16dd'/JJ	.	.	.	.	.	.	16ddd'\JJ	.
*	*	*	*	*Xrep	*	*Xrep	*	*	*	*	*	*	*	*	*	*	*	*	*	*	*	*	*	*	*	*	*	*	*	*	*	*	*	*	*
*	*	*	*	*rep	*	*rep	*	*	*	*	*	*	*	*	*	*	*	*	*	*	*	*	*	*	*	*	*	*	*	*	*	*	*	*	*
8G\	.	8G\yy	.	8d\ 8G\	.	8g/ 8B/	.	(16ee\LL	.	.	.	.	.	4r	.	4r	.	4r	.	.	.	8B\ 8G\	.	.	8dd\ 8g\	.	(16ee/LL	8g\	.	2r	.	2r	.	(16eee\LL	.
.	.	.	.	.	.	.	.	16dd\	.	.	.	.	.	.	.	.	.	.	.	.	.	.	.	.	.	.	16dd/	.	.	.	.	.	.	16ddd\	.
8r	.	8ryy	.	8r	.	8r	.	16cc#X\	.	.	.	.	.	.	.	.	.	.	.	.	.	8r	.	.	8r	.	16cc#X/	8r	.	.	.	.	.	16ccc#X\	.
.	.	.	.	.	.	.	.	16dd\JJ	.	.	.	.	.	.	.	.	.	.	.	.	.	.	.	.	.	.	16dd/JJ	.	.	.	.	.	.	16ddd\JJ	.
*	*	*	*	*Xrep	*	*Xrep	*	*	*	*	*	*	*	*	*	*	*	*	*	*	*	*	*	*	*	*	*	*	*	*	*	*	*	*	*
4D\	.	4D\yy	.	4d\	.	4a/ 4c^/	.	16dd#X\LL	.	.	.	.	.	4D/ 4DD/	.	(4A^<\	.	(4f#^<\	.	.	.	4A\ 4D^<\	.	.	4dd\ 4cc^<\	.	16dd#X/LL	4a\	.	.	.	.	.	16ddd#X\LL	.
.	.	.	.	.	.	.	.	16ee\	.	.	.	.	.	.	.	.	.	.	.	.	.	.	.	.	.	.	16ee/	.	.	.	.	.	.	16eee\	.
.	.	.	.	.	.	.	.	16ffn\	.	.	.	.	.	.	.	.	.	.	.	.	.	.	.	.	.	.	16ffn/	.	.	.	.	.	.	16fffn\	.
.	.	.	.	.	.	.	.	16ff#X\JJ	.	.	.	.	.	.	.	.	.	.	.	.	.	.	.	.	.	.	16ff#X/JJ	.	.	.	.	.	.	16fff#X\JJ	.
=24	=24	=24	=24	=24	=24	=24	=24	=24	=24	=24	=24	=24	=24	=24	=24	=24	=24	=24	=24	=24	=24	=24	=24	=24	=24	=24	=24	=24	=24	=24	=24	=24	=24	=24	=24
*	*	*	*	*	*	*	*	*	*	*	*	*	*	*	*	*	*	*	*	*	*	*	*	*	*^	*	*	*	*	*	*	*	*	*	*
8GG/	.	8GG/	.	8d\ 8G\	.	8g/ 8B/	.	(16gg\LL)	.	1ryy	.	1ryy	.	4D/ 4GG/	.	4B\)	.	4g\)	.	1ryy	.	8B\ 8GG\	.	1ryy	8dd\ 8g\	2ryy	.	4gg/)	8g\	.	(16gg\LL	.	(16gg\LL	.	4ggg\)	.
.	.	.	.	.	.	.	.	16bb\)	.	.	.	.	.	.	.	.	.	.	.	.	.	.	.	.	.	.	.	.	.	.	16bb\)	.	16bb\)	.	.	.
8r	.	8r	.	8r	.	8r	.	16dd'\	.	.	.	.	.	.	.	.	.	.	.	.	.	8r	.	.	8r	.	.	.	8r	.	16dd'\	.	16dd'\	.	.	.
.	.	.	.	.	.	.	.	16dd'\JJ	.	.	.	.	.	.	.	.	.	.	.	.	.	.	.	.	.	.	.	.	.	.	16dd'\JJ	.	16dd'\JJ	.	.	.
*	*	*	*	*rep	*	*rep	*	*	*	*	*	*	*	*	*	*	*	*	*	*	*	*	*	*	*	*	*	*	*	*	*	*	*	*	*	*
8G\	.	8G\	.	8d\ 8G\	.	8g/ 8B/	.	(16ee\LL	.	.	.	.	.	4r	.	4r	.	4r	.	.	.	8B\ 8G\	.	.	8dd\ 8g\	.	.	4r	8g\	.	(16ee\LL	.	(16ee\LL	.	4ryy	.
.	.	.	.	.	.	.	.	16dd\)	.	.	.	.	.	.	.	.	.	.	.	.	.	.	.	.	.	.	.	.	.	.	16dd\)	.	16dd\)	.	.	.
8r	.	8r	.	8r	.	8r	.	16dd'\	.	.	.	.	.	.	.	.	.	.	.	.	.	8r	.	.	8r	.	.	.	8r	.	16dd'\	.	16dd'\	.	.	.
.	.	.	.	.	.	.	.	16dd'\JJ	.	.	.	.	.	.	.	.	.	.	.	.	.	.	.	.	.	.	.	.	.	.	16dd'\JJ	.	16dd'\JJ	.	.	.
*	*	*	*	*Xrep	*	*Xrep	*	*	*	*	*	*	*	*	*	*	*	*	*	*	*	*	*	*	*	*	*	*	*	*	*	*	*	*	*	*
*	*	*	*	*rep	*	*rep	*	*	*	*	*	*	*	*	*	*	*	*	*	*	*	*	*	*	*	*	*	*	*	*	*	*	*	*	*	*
8G\	.	8G\	.	8d\ 8G\	.	8g/ 8B/	.	(16ee\LL	.	.	.	.	.	4r	.	4r	.	4r	.	.	.	8B\ 8G\	.	.	8dd\ 8g\	4ryy	.	2r	8g\	.	(16ee\LL	.	(16ee\LL	.	2ryy	.
.	.	.	.	.	.	.	.	16dd\	.	.	.	.	.	.	.	.	.	.	.	.	.	.	.	.	.	.	.	.	.	.	16dd\	.	16dd\	.	.	.
8r	.	8r	.	8r	.	8r	.	16cc#X\	.	.	.	.	.	.	.	.	.	.	.	.	.	8r	.	.	8r	.	.	.	8r	.	16cc#X\	.	16cc#X\	.	.	.
.	.	.	.	.	.	.	.	16dd\JJ	.	.	.	.	.	.	.	.	.	.	.	.	.	.	.	.	.	.	.	.	.	.	16dd\JJ	.	16dd\JJ	.	.	.
*	*	*	*	*Xrep	*	*Xrep	*	*	*	*	*	*	*	*	*	*	*	*	*	*	*	*	*	*	*	*	*	*	*	*	*	*	*	*	*	*
4D\	.	4D\	.	4d\ 4A\	.	4f#/ 4c^/	.	16cc#\LL	.	.	.	.	.	4D/ 4DD/	.	4A^<\	.	4f#^<\	.	.	.	4A\ 4D^<\	.	.	4dd^</	4cc\	.	.	4f#\	.	16cc#\LL	.	16cc#\LL	.	.	.
.	.	.	.	.	.	.	.	16dd\	.	.	.	.	.	.	.	.	.	.	.	.	.	.	.	.	.	.	.	.	.	.	16dd\	.	16dd\	.	.	.
.	.	.	.	.	.	.	.	16ccn\	.	.	.	.	.	.	.	.	.	.	.	.	.	.	.	.	.	.	.	.	.	.	16ccn\	.	16ccn\	.	.	.
.	.	.	.	.	.	.	.	16a\JJ)	.	.	.	.	.	.	.	.	.	.	.	.	.	.	.	.	.	.	.	.	.	.	16a\JJ)	.	16a\JJ)	.	.	.
*	*	*	*	*	*	*	*	*	*	*	*	*	*	*	*	*	*	*	*	*	*	*	*	*	*v	*v	*	*	*	*	*	*	*	*	*	*
!!LO:PB:g=original
=25	=25	=25	=25	=25	=25	=25	=25	=25	=25	=25	=25	=25	=25	=25	=25	=25	=25	=25	=25	=25	=25	=25	=25	=25	=25	=25	=25	=25	=25	=25	=25	=25	=25	=25	=25
8GG/	.	8GG/yy	.	8dyy\ 8G\yy	.	8gyy/ 8B/yy	.	(16g/LL	.	1ryy	.	1ryy	.	2r	.	2r	.	2r	.	1ryy	.	8Byy\ 8GG\yy	.	1ryy	8ddyy\ 8g\yy	.	(16g/LL	8g\	.	8gg\ 8b\	.	8gg\yy	.	(16gg\LLyy	.
.	.	.	.	.	.	.	.	16b/)	.	.	.	.	.	.	.	.	.	.	.	.	.	.	.	.	.	.	16b/)	.	.	.	.	.	.	16bb\)yy	.
8r	.	8ryy	.	8ryy	.	8ryy	.	16dd'/	.	.	.	.	.	.	.	.	.	.	.	.	.	8ryy	.	.	8ryy	.	16dd'/	8r	.	8r	.	8ryy	.	16ddd'\yy	.
.	.	.	.	.	.	.	.	16dd'/JJ	.	.	.	.	.	.	.	.	.	.	.	.	.	.	.	.	.	.	16dd'/JJ	.	.	.	.	.	.	16ddd'\JJyy	.
*	*	*	*	*rep	*	*rep	*	*	*	*	*	*	*	*	*	*	*	*	*	*	*	*	*	*	*	*	*	*	*	*	*	*	*	*	*
8G\	.	8G\yy	.	8dyy\ 8G\yy	.	8gyy/ 8B/yy	.	(16ee\LL	.	.	.	.	.	.	.	.	.	.	.	.	.	8Byy\ 8G\yy	.	.	8ddyy\ 8g\yy	.	(16ee/LL	8g\	.	4r	.	4ryy	.	(16eee\LLyy	.
.	.	.	.	.	.	.	.	16dd\)	.	.	.	.	.	.	.	.	.	.	.	.	.	.	.	.	.	.	16dd/)	.	.	.	.	.	.	16ddd\)yy	.
8r	.	8ryy	.	8ryy	.	8ryyyy	.	16dd'\	.	.	.	.	.	.	.	.	.	.	.	.	.	8ryy	.	.	8ryy	.	16dd'/	8r	.	.	.	.	.	16ddd'\yy	.
.	.	.	.	.	.	.	.	16dd'\JJ	.	.	.	.	.	.	.	.	.	.	.	.	.	.	.	.	.	.	16dd'/JJ	.	.	.	.	.	.	16ddd'\JJyy	.
*	*	*	*	*Xrep	*	*Xrep	*	*	*	*	*	*	*	*	*	*	*	*	*	*	*	*	*	*	*	*	*	*	*	*	*	*	*	*	*
*	*	*	*	*rep	*	*rep	*	*	*	*	*	*	*	*	*	*	*	*	*	*	*	*	*	*	*	*	*	*	*	*	*	*	*	*	*
8G\	.	8G\yy	.	8dyy\ 8G\yy	.	8gyy/ 8B/yy	.	16ee\LL	.	.	.	.	.	4r	.	4r	.	4r	.	.	.	8Byy\ 8G\yy	.	.	8ddyy\ 8g\yy	.	(16ee/LL	8g\	.	2r	.	2ryy	.	(16eee\LLyy	.
.	.	.	.	.	.	.	.	(16dd\	.	.	.	.	.	.	.	.	.	.	.	.	.	.	.	.	.	.	16dd/	.	.	.	.	.	.	16ddd\yy	.
8r	.	8ryy	.	8ryy	.	8ryy	.	16cc#X\	.	.	.	.	.	.	.	.	.	.	.	.	.	8ryy	.	.	8ryy	.	16cc#X/	8r	.	.	.	.	.	16ccc#X\yy	.
.	.	.	.	.	.	.	.	16dd\JJ	.	.	.	.	.	.	.	.	.	.	.	.	.	.	.	.	.	.	16dd/JJ	.	.	.	.	.	.	16ddd\JJyy	.
*	*	*	*	*Xrep	*	*Xrep	*	*	*	*	*	*	*	*	*	*	*	*	*	*	*	*	*	*	*	*	*	*	*	*	*	*	*	*	*
4D\	.	4D\yy	.	4d\yy	.	4ayy/ 4c^/yy	.	16dd#X\LL	.	.	.	.	.	4D/ 4DD/	.	(4A^<\	.	(4f#^<\	.	.	.	4Ayy\ 4D^<\yy	.	.	4ddyy\ 4cc^<\yy	.	16dd#X/LL	4a\	.	.	.	.	.	16ddd#X\LLyy	.
.	.	.	.	.	.	.	.	16ee\	.	.	.	.	.	.	.	.	.	.	.	.	.	.	.	.	.	.	16ee/	.	.	.	.	.	.	16eee\yy	.
.	.	.	.	.	.	.	.	16ffn\	.	.	.	.	.	.	.	.	.	.	.	.	.	.	.	.	.	.	16ffn/	.	.	.	.	.	.	16fffn\yy	.
.	.	.	.	.	.	.	.	16ff#X\JJ	.	.	.	.	.	.	.	.	.	.	.	.	.	.	.	.	.	.	16ff#X/JJ	.	.	.	.	.	.	16fff#X\JJyy	.
=26	=26	=26	=26	=26	=26	=26	=26	=26	=26	=26	=26	=26	=26	=26	=26	=26	=26	=26	=26	=26	=26	=26	=26	=26	=26	=26	=26	=26	=26	=26	=26	=26	=26	=26	=26
*	*	*	*	*	*	*	*	*	*	*	*	*	*	*	*	*	*	*	*	*	*	*	*	*	*^	*	*	*	*	*	*	*	*	*	*
8GG/	.	8GG/yy	.	8dyy\ 8G\yy	.	8gyy/ 8B/yy	.	(16gg\LL)	.	1ryy	.	1ryy	.	4D/ 4GG/	.	4B\)	.	4g\)	.	1ryy	.	8Byy\ 8GG\yy	.	1ryy	8ddyy\ 8g\yy	2ryy	.	4gg/)yy	8g\yy	.	(16gg\LLyy	.	(16gg\LLyy	.	4ggg\)yy	.
.	.	.	.	.	.	.	.	16bb\)	.	.	.	.	.	.	.	.	.	.	.	.	.	.	.	.	.	.	.	.	.	.	16bb\)yy	.	16bb\)yy	.	.	.
8r	.	8ryy	.	8ryy	.	8ryy	.	16dd'\	.	.	.	.	.	.	.	.	.	.	.	.	.	8ryy	.	.	8ryy	.	.	.	8ryy	.	16dd'\yy	.	16dd'\yy	.	.	.
.	.	.	.	.	.	.	.	16dd'\JJ	.	.	.	.	.	.	.	.	.	.	.	.	.	.	.	.	.	.	.	.	.	.	16dd'\JJyy	.	16dd'\JJyy	.	.	.
*	*	*	*	*rep	*	*rep	*	*	*	*	*	*	*	*	*	*	*	*	*	*	*	*	*	*	*	*	*	*	*	*	*	*	*	*	*	*
8G\	.	8G\yy	.	8dyy\ 8G\yy	.	8gyy/ 8B/yy	.	(16ee\LL	.	.	.	.	.	4r	.	4r	.	4r	.	.	.	8Byy\ 8G\yy	.	.	8ddyy\ 8g\yy	.	.	4ryy	8g\yy	.	(16ee\LLyy	.	(16ee\LLyy	.	4ryy	.
.	.	.	.	.	.	.	.	16dd\)	.	.	.	.	.	.	.	.	.	.	.	.	.	.	.	.	.	.	.	.	.	.	16dd\)yy	.	16dd\)yy	.	.	.
8r	.	8ryy	.	8ryy	.	8ryy	.	16dd'\	.	.	.	.	.	.	.	.	.	.	.	.	.	8ryy	.	.	8ryy	.	.	.	8ryy	.	16dd'\yy	.	16dd'\yy	.	.	.
.	.	.	.	.	.	.	.	16dd'\JJ	.	.	.	.	.	.	.	.	.	.	.	.	.	.	.	.	.	.	.	.	.	.	16dd'\JJyy	.	16dd'\JJyy	.	.	.
*	*	*	*	*Xrep	*	*Xrep	*	*	*	*	*	*	*	*	*	*	*	*	*	*	*	*	*	*	*	*	*	*	*	*	*	*	*	*	*	*
*	*	*	*	*rep	*	*rep	*	*	*	*	*	*	*	*	*	*	*	*	*	*	*	*	*	*	*	*	*	*	*	*	*	*	*	*	*	*
8G\	.	8G\yy	.	8dyy\ 8G\yy	.	8gyy/ 8B/yy	.	(16ee\LL	.	.	.	.	.	4r	.	4r	.	4r	.	.	.	8Byy\ 8G\yy	.	.	8ddyy\ 8g\yy	4ryy	.	2ryy	8g\yy	.	(16ee\LLyy	.	(16ee\LLyy	.	2ryy	.
.	.	.	.	.	.	.	.	16dd\	.	.	.	.	.	.	.	.	.	.	.	.	.	.	.	.	.	.	.	.	.	.	16dd\yy	.	16dd\yy	.	.	.
8r	.	8ryy	.	8ryy	.	8ryy	.	16cc#X\	.	.	.	.	.	.	.	.	.	.	.	.	.	8ryy	.	.	8ryy	.	.	.	8ryy	.	16cc#X\yy	.	16cc#X\yy	.	.	.
.	.	.	.	.	.	.	.	16dd\JJ	.	.	.	.	.	.	.	.	.	.	.	.	.	.	.	.	.	.	.	.	.	.	16dd\JJyy	.	16dd\JJyy	.	.	.
*	*	*	*	*Xrep	*	*Xrep	*	*	*	*	*	*	*	*	*	*	*	*	*	*	*	*	*	*	*	*	*	*	*	*	*	*	*	*	*	*
4D\	.	4D\yy	.	4dyy\ 4A\yy	.	4f#yy/ 4c^/yy	.	16cc#\LL	.	.	.	.	.	4D/ 4DD/	.	4A^<\	.	4f#^<\	.	.	.	4Ayy\ 4D^<\yy	.	.	4dd^</yy	4cc\yy	.	.	4f#\yy	.	16cc#\LLyy	.	16cc#\LLyy	.	.	.
.	.	.	.	.	.	.	.	16dd\	.	.	.	.	.	.	.	.	.	.	.	.	.	.	.	.	.	.	.	.	.	.	16dd\yy	.	16dd\yy	.	.	.
.	.	.	.	.	.	.	.	16ccn\	.	.	.	.	.	.	.	.	.	.	.	.	.	.	.	.	.	.	.	.	.	.	16ccn\yy	.	16ccn\yy	.	.	.
!	!	!	!	!	!	!	!	!	!	!	!	!	!	!	!	!	!	!	!	!	!	!	!	!	!	!	!	!	!	!	!	!	!	!	!LO:TX:a:t=vi+	!
!	!	!	!	!	!	!	!	!	!	!	!	!	!	!	!	!	!	!	!	!	!	!	!	!	!	!	!	!	!	!	!	!	!	!	!LO:SIC:v:t=skreślona strona	!
.	.	.	.	.	.	.	.	16a\JJ	.	.	.	.	.	.	.	.	.	.	.	.	.	.	.	.	.	.	.	.	.	.	16a\JJ)yy	.	16a\JJ)yy	.	.	.
*	*	*	*	*	*	*	*	*	*	*	*	*	*	*	*	*	*	*	*	*	*	*	*	*	*v	*v	*	*	*	*	*	*	*	*	*	*
!!LO:PB:g=original
=27	=27	=27	=27	=27	=27	=27	=27	=27	=27	=27	=27	=27	=27	=27	=27	=27	=27	=27	=27	=27	=27	=27	=27	=27	=27	=27	=27	=27	=27	=27	=27	=27	=27	=27	=27
*	*	*	*	*	*	*	*	*	*	*	*	*	*	*	*	*	*	*	*	*	*	*	*	*	*	*	*	*	*	*^	*	*	*	*	*
!	!	!LO:SIC:v:o:t=t.29-31 ukryte	!	!	!	!	!	!	!	!	!	!	!	!	!	!	!	!	!	!	!	!	!	!	!	!	!	!	!	!	!	!	!	!	!	!
8G\	.	8G\yy	.	8d\ 8G\	.	8g/ 8B/	.	8g/)	.	4C/	.	8r	.	8G\L	.	8B\L	.	8g\L	.	8r	.	8B\L 8G\	.	1ryy	8dd/L 8g/	.	8g/	8g\L	.	8g/L	8g\L	.	8gg\L	.	8ggg\L	.
8r	.	8ryy	.	8r	.	8r	.	8r	.	.	.	8D/	.	8D\J	.	8A\J	.	8f#\J	.	8a/ 8f#/	.	8A\J 8D\	.	.	8dd/J	.	8a/	8f#\J	.	8ff#/J	8a\J	.	8aa\J	.	8fff#\J	.
*	*	*	*	*	*	*	*	*	*	*	*	*	*	*rep	*	*rep	*	*rep	*	*	*	*rep	*	*	*rep	*	*	*	*	*	*	*	*	*	*rep	*
4r	.	4ryy	.	4r	.	4r	.	4r	.	4r	.	8GG/L	.	8G\L	.	8B\L	.	8g\L	.	8b/L 8g/	.	8B\L 8G\	.	.	8dd/L 8g/	.	8b/L 8g/	4ryy	.	8gg/L< 8b/	2.ryy	.	8bb\L	.	8ggg\L	.
.	.	.	.	.	.	.	.	.	.	.	.	8D/J	.	8D\J	.	8A\J	.	8f#\J	.	8a/J 8f#/	.	8A\J 8D\	.	.	8dd/J	.	8a/J 8f#/	.	.	8ff#/J 8a/	.	.	8aa\J	.	8fff#\J	.
*	*	*	*	*	*	*	*	*	*	*	*	*	*	*Xrep	*	*Xrep	*	*Xrep	*	*	*	*Xrep	*	*	*Xrep	*	*	*	*	*	*	*	*	*	*Xrep	*
*	*	*	*	*	*	*	*	*	*	*	*	*rep	*	*rep	*	*rep	*	*rep	*	*rep	*	*rep	*	*	*rep	*	*rep	*	*	*rep	*	*	*	*	*rep	*
4r	.	4ryy	.	4r	.	4r	.	4r	.	2r	.	8GG/L	.	8G\L	.	8B\L	.	8g\L	.	8b/L 8g/	.	8B\L 8G\	.	.	8dd/L 8g/	.	8b/L 8g/	2ryy	.	8gg/L< 8b/	.	.	8bb\L	.	8ggg\L	.
.	.	.	.	.	.	.	.	.	.	.	.	8D/J	.	8D\J	.	8A\J	.	8f#\J	.	8a/J 8f#/	.	8A\J 8D\	.	.	8dd/J	.	8a/J 8f#/	.	.	8ff#/J 8a/	.	.	8aa\J	.	8fff#\J	.
*	*	*	*	*	*	*	*	*	*	*	*	*Xrep	*	*Xrep	*	*Xrep	*	*Xrep	*	*Xrep	*	*Xrep	*	*	*Xrep	*	*Xrep	*	*	*Xrep	*	*	*	*	*Xrep	*
*	*	*	*	*	*	*	*	*	*	*	*	*rep	*	*rep	*	*rep	*	*rep	*	*rep	*	*rep	*	*	*rep	*	*rep	*	*	*rep	*	*	*	*	*rep	*
8r	.	8ryy	.	8r	.	8r	.	8r	.	.	.	8GG/L	.	8G\L	.	8B\L	.	8g\L	.	8b/L 8g/	.	8B\L 8G\	.	.	8dd/L 8g/	.	8b/L 8g/	.	.	8gg/L< 8b/	.	.	8bb\L	.	8ggg\L	.
8D\	.	8D\yy	.	8f#\ 8A\	.	8dd/ 8f#/	.	8ff#\ 8a\	.	.	.	8D/J	.	8D\J	.	8A\J	.	8f#\J	.	8a/J 8f#/	.	8A\J 8D\	.	.	8dd/J	.	8a/J 8f#/	.	.	8ff#/J 8a/	.	.	8ddd\J	.	8fff#\J	.
*	*	*	*	*	*	*	*	*	*	*	*	*Xrep	*	*Xrep	*	*Xrep	*	*Xrep	*	*Xrep	*	*Xrep	*	*	*Xrep	*	*Xrep	*	*	*Xrep	*	*	*	*	*Xrep	*
*	*	*	*	*	*	*	*	*	*	*	*	*	*	*	*	*	*	*	*	*	*	*	*	*	*	*	*v	*v	*	*	*	*	*	*	*	*
*	*	*	*	*	*	*	*	*	*	*	*	*	*	*	*	*	*	*	*	*	*	*	*	*	*	*	*	*	*v	*v	*	*	*	*	*
=28	=28	=28	=28	=28	=28	=28	=28	=28	=28	=28	=28	=28	=28	=28	=28	=28	=28	=28	=28	=28	=28	=28	=28	=28	=28	=28	=28	=28	=28	=28	=28	=28	=28	=28
*	*	*	*	*	*	*	*	*	*	*	*	*tremolo	*	*	*	*	*	*	*	*	*	*	*	*	*	*	*	*	*	*	*	*	*	*
4G\	.	4G\yy	.	4g\ 4B\	.	4dd/ 4g/	.	4gg\ 4b\ 4d\	.	4C/	.	16GG/LL	.	4G\	.	4B\	.	4g\	.	4b/ 4g/	.	4B\ 4G\	.	1ryy	4dd/ 4g/	.	4b/ 4g/	.	4gg\ 4b\	.	4gg\	.	4ggg\	.
.	.	.	.	.	.	.	.	.	.	.	.	16GG/	.	.	.	.	.	.	.	.	.	.	.	.	.	.	.	.	.	.	.	.	.	.
.	.	.	.	.	.	.	.	.	.	.	.	16GG/	.	.	.	.	.	.	.	.	.	.	.	.	.	.	.	.	.	.	.	.	.	.
.	.	.	.	.	.	.	.	.	.	.	.	16GG/	.	.	.	.	.	.	.	.	.	.	.	.	.	.	.	.	.	.	.	.	.	.
4r	.	4ryy	.	4r	.	4r	.	4r	.	4r	.	16GG/	.	4r	.	4r	.	4r	.	4r	.	4r	.	.	4r	.	4r	.	4r	.	4r	.	4r	.
.	.	.	.	.	.	.	.	.	.	.	.	16GG/	.	.	.	.	.	.	.	.	.	.	.	.	.	.	.	.	.	.	.	.	.	.
.	.	.	.	.	.	.	.	.	.	.	.	16GG/	.	.	.	.	.	.	.	.	.	.	.	.	.	.	.	.	.	.	.	.	.	.
.	.	.	.	.	.	.	.	.	.	.	.	16GG/	.	.	.	.	.	.	.	.	.	.	.	.	.	.	.	.	.	.	.	.	.	.
4G\	.	4G\yy	.	4b\ 4d\ 4G\	.	4gg/ 4b/ 4d/ 4G/	.	4bb\ 4b\ 4d\	.	4C/	.	16GG/	.	4G\	.	4d\	.	4b\	.	4b/ 4g/	.	4d\ 4B\	.	.	4dd/ 4g/	.	4gg\ 4b\	.	4bb\ 4dd\	.	4bb\	.	4ggg\	.
.	.	.	.	.	.	.	.	.	.	.	.	16GG/	.	.	.	.	.	.	.	.	.	.	.	.	.	.	.	.	.	.	.	.	.	.
.	.	.	.	.	.	.	.	.	.	.	.	16GG/	.	.	.	.	.	.	.	.	.	.	.	.	.	.	.	.	.	.	.	.	.	.
.	.	.	.	.	.	.	.	.	.	.	.	16GG/	.	.	.	.	.	.	.	.	.	.	.	.	.	.	.	.	.	.	.	.	.	.
8.r	.	8.ryy	.	8.r	.	8.r	.	8.r	.	4r	.	16GG/	.	8.r	.	8.r	.	8.r	.	8.r	.	8.r	.	.	8.r	.	8.r	.	8.r	.	8.r	.	8.r	.
.	.	.	.	.	.	.	.	.	.	.	.	16GG/	.	.	.	.	.	.	.	.	.	.	.	.	.	.	.	.	.	.	.	.	.	.
.	.	.	.	.	.	.	.	.	.	.	.	16GG/	.	.	.	.	.	.	.	.	.	.	.	.	.	.	.	.	.	.	.	.	.	.
16GG/	.	16GG/yy	.	16G/	.	16d/ 16G/	.	16g/ 16B/	.	.	.	16GG/JJ	.	16G\	.	16B\	.	16g\	.	16g/	.	16B\ 16G\	.	.	16dd/ 16g/	.	16g/ 16B/	.	16g/	.	16g/	.	16g/	.
=29	=29	=29	=29	=29	=29	=29	=29	=29	=29	=29	=29	=29	=29	=29	=29	=29	=29	=29	=29	=29	=29	=29	=29	=29	=29	=29	=29	=29	=29	=29	=29	=29	=29	=29
1GG/	.	1GGyy/	.	1G/	.	1d/ 1G/	.	1g/ 1B/	.	4C/	.	4GG/	.	1G\	.	1B\	.	1g\	.	1g/	.	1B\ 1G\	.	1ryy	1dd/ 1g/	.	1g/ 1B/	.	1g/	.	1g/	.	1g/	.
.	.	.	.	.	.	.	.	.	.	4r	.	4r	.	.	.	.	.	.	.	.	.	.	.	.	.	.	.	.	.	.	.	.	.	.
.	.	.	.	.	.	.	.	.	.	2r	.	2r	.	.	.	.	.	.	.	.	.	.	.	.	.	.	.	.	.	.	.	.	.	.
==	==	==	==	==	==	==	==	==	==	==	==	==	==	==	==	==	==	==	==	==	==	==	==	==	==	==	==	==	==	==	==	==	==	==
*-	*-	*-	*-	*-	*-	*-	*-	*-	*-	*-	*-	*-	*-	*-	*-	*-	*-	*-	*-	*-	*-	*-	*-	*-	*-	*-	*-	*-	*-	*-	*-	*-	*-	*-
!!!system-decoration: [(s1,s2)]s3,s4[(s5,s6)]s7,s8[(s9,s10,s11)]s12,s13[(s14,s15,s16)][(s17,s18)]
!!!RDF**kern: > = above
!!!RDF**kern: < = below
!!!RDF**kern: | = vertical stroke
!!!EED: Leszek Kubiak
!!!EEV: 2021-05-17
!!!ENC: Marcin Jachim
!!!END: 2021-04-20
